;FLAVOR:RepRap
;TIME:1300
;Filament used: 1.34512m
;Layer height: 0.15
;MINX:267.39
;MINY:270.163
;MINZ:0.2
;MAXX:329.825
;MAXY:329.829
;MAXZ:8.75
;TARGET_MACHINE.NAME:Modix BIG-60 V4
;Generated with Cura_SteamEngine 5.10.0
T0
M104 S200
M109 S200
G28 ; home all axes
M82 ;absolute extrusion mode
M83 ;relative extrusion mode
G1 F2400 E-1
;LAYER_COUNT:58
;LAYER:0
M107
G0 F5000 X271.742 Y276.506 Z0.2
;TYPE:SKIRT
G1 F2400 E1
G1 F1200 X272.621 Y275.764 E0.04017
G1 X273.052 Y275.436 E0.01891
G1 X273.55 Y275.103 E0.02092
G1 X274.204 Y274.703 E0.02677
G1 X274.691 Y274.437 E0.01938
G1 X275.367 Y274.115 E0.02615
G1 X275.866 Y273.902 E0.01895
G1 X276.525 Y273.65 E0.02464
G1 X277.047 Y273.486 E0.01911
G1 X277.969 Y273.247 E0.03326
G1 X279.01 Y273.059 E0.03694
G1 X283.042 Y272.613 E0.14167
G1 X285.664 Y272.244 E0.09247
G1 X288.281 Y271.8 E0.0927
G1 X290.879 Y271.285 E0.0925
G1 X294.485 Y270.446 E0.1293
G1 X295.375 Y270.297 E0.03151
G1 X296.145 Y270.209 E0.02707
G1 X297.212 Y270.163 E0.0373
G1 X298.378 Y270.208 E0.04075
G1 X299.62 Y270.371 E0.04375
G1 X300.462 Y270.558 E0.03012
G1 X301.124 Y270.741 E0.02399
G1 X301.799 Y270.95 E0.02468
G1 X302.409 Y271.178 E0.02274
G1 X302.959 Y271.423 E0.02103
G1 X303.538 Y271.703 E0.02246
G1 X304.162 Y272.044 E0.02483
G1 X304.989 Y272.588 E0.03457
G1 X305.875 Y273.261 E0.03886
G1 X308.357 Y275.408 E0.11461
G1 X310.414 Y277.083 E0.09264
G1 X312.52 Y278.701 E0.09275
G1 X314.649 Y280.242 E0.09178
G1 X316.839 Y281.735 E0.09256
G1 X319.116 Y283.195 E0.09446
G1 X322.322 Y285.101 E0.13026
G1 X322.914 Y285.439 E0.02381
G1 X323.563 Y285.827 E0.02641
G1 X324.525 Y286.498 E0.04096
G1 X325.432 Y287.257 E0.0413
G1 X326.248 Y288.068 E0.04018
G1 X326.983 Y288.939 E0.0398
G1 X327.355 Y289.433 E0.0216
G1 X327.683 Y289.928 E0.02074
G1 X328.184 Y290.748 E0.03356
G1 X328.467 Y291.315 E0.02213
G1 X328.76 Y291.973 E0.02515
G1 X329.013 Y292.599 E0.02358
G1 X329.243 Y293.258 E0.02438
G1 X329.524 Y294.38 E0.04039
G1 X329.714 Y295.449 E0.03792
G1 X329.823 Y296.642 E0.04184
G1 X329.825 Y297.801 E0.04048
G1 X329.74 Y298.903 E0.0386
G1 X329.615 Y299.748 E0.02983
G1 X329.38 Y300.735 E0.03543
G1 X329.136 Y301.584 E0.03085
G1 X328.848 Y302.331 E0.02796
G1 X328.472 Y303.201 E0.0331
G1 X328.087 Y303.905 E0.02802
G1 X327.701 Y304.549 E0.02622
G1 X327.082 Y305.437 E0.0378
G1 X326.599 Y306.03 E0.02671
G1 X325.268 Y307.571 E0.07111
G1 X323.499 Y309.693 E0.09648
G1 X321.882 Y311.753 E0.09146
G1 X320.303 Y313.884 E0.09262
G1 X318.767 Y316.084 E0.0937
G1 X317.303 Y318.316 E0.09322
G1 X315.92 Y320.559 E0.09203
G1 X314.163 Y323.573 E0.12184
G1 X313.516 Y324.502 E0.03954
G1 X312.74 Y325.43 E0.04225
G1 X311.923 Y326.252 E0.04047
G1 X311.044 Y326.993 E0.04015
G1 X310.613 Y327.321 E0.01891
G1 X310.115 Y327.654 E0.02092
G1 X309.461 Y328.054 E0.02677
G1 X308.978 Y328.318 E0.01922
G1 X308.304 Y328.639 E0.02607
G1 X307.345 Y329.039 E0.03629
G1 X306.595 Y329.277 E0.02748
G1 X305.698 Y329.51 E0.03237
G1 X304.54 Y329.716 E0.04108
G1 X303.351 Y329.824 E0.04169
G1 X302.241 Y329.829 E0.03877
G1 X301.024 Y329.727 E0.04265
G1 X300.419 Y329.639 E0.02135
G1 X299.564 Y329.463 E0.03049
G1 X298.459 Y329.155 E0.04006
G1 X297.655 Y328.844 E0.03011
G1 X296.708 Y328.43 E0.03609
G1 X296.084 Y328.084 E0.02492
G1 X295.43 Y327.691 E0.02665
G1 X294.579 Y327.1 E0.03618
G1 X293.954 Y326.59 E0.02817
G1 X292.774 Y325.572 E0.05443
G1 X292.648 Y325.474 E0.00557
G1 X292.013 Y324.92 E0.02943
G1 X289.95 Y323.222 E0.09331
G1 X287.831 Y321.575 E0.09373
G1 X285.729 Y320.034 E0.09102
G1 X283.49 Y318.489 E0.095
G1 X281.303 Y317.068 E0.09108
G1 X279.028 Y315.682 E0.09303
G1 X277.145 Y314.596 E0.07591
G1 X276.39 Y314.143 E0.03075
G1 X275.505 Y313.526 E0.03768
G1 X274.566 Y312.742 E0.04272
G1 X273.76 Y311.94 E0.03971
G1 X273.005 Y311.054 E0.04065
G1 X272.624 Y310.536 E0.02246
G1 X272.289 Y310.027 E0.02128
G1 X271.934 Y309.447 E0.02375
G1 X271.681 Y308.982 E0.01849
G1 X271.358 Y308.304 E0.02623
G1 X271.073 Y307.628 E0.02562
G1 X270.772 Y306.794 E0.03096
G1 X270.481 Y305.646 E0.04136
G1 X270.29 Y304.58 E0.03782
G1 X270.126 Y302.995 E0.05565
G1 X269.817 Y300.37 E0.09231
G1 X269.428 Y297.706 E0.09402
G1 X268.976 Y295.123 E0.09158
G1 X268.445 Y292.532 E0.09237
G1 X267.717 Y289.447 E0.1107
G1 X267.513 Y288.362 E0.03856
G1 X267.393 Y287.075 E0.04514
G1 X267.39 Y285.914 E0.04055
G1 X267.476 Y284.816 E0.03846
G1 X267.588 Y284.091 E0.02562
G1 X267.769 Y283.244 E0.03025
G1 X268.069 Y282.163 E0.03918
G1 X268.39 Y281.332 E0.03111
G1 X268.739 Y280.524 E0.03074
G1 X269.136 Y279.8 E0.02884
G1 X269.526 Y279.151 E0.02644
G1 X270.149 Y278.257 E0.03805
G1 X270.929 Y277.323 E0.0425
G1 X271.742 Y276.506 E0.04025
G0 F5000 X272.013 Y276.827
G1 F1200 X272.876 Y276.098 E0.03945
G1 X273.286 Y275.785 E0.01801
G1 X273.77 Y275.461 E0.02034
G1 X274.406 Y275.071 E0.02605
G1 X274.872 Y274.816 E0.01855
G1 X275.532 Y274.501 E0.02554
G1 X276.016 Y274.294 E0.01838
G1 X276.651 Y274.051 E0.02374
G1 X277.152 Y273.893 E0.01835
G1 X278.074 Y273.654 E0.03326
G1 X279.084 Y273.472 E0.03584
G1 X283.101 Y273.029 E0.14114
G1 X285.723 Y272.66 E0.09247
G1 X288.364 Y272.212 E0.09355
G1 X290.961 Y271.697 E0.09246
G1 X294.555 Y270.86 E0.12887
G1 X295.423 Y270.714 E0.03074
G1 X296.164 Y270.629 E0.02605
G1 X297.196 Y270.583 E0.03608
G1 X298.362 Y270.628 E0.04075
G1 X299.529 Y270.781 E0.0411
G1 X300.35 Y270.963 E0.02937
G1 X301 Y271.142 E0.02355
G1 X301.652 Y271.343 E0.02383
G1 X302.238 Y271.562 E0.02185
G1 X302.776 Y271.801 E0.02056
G1 X303.337 Y272.072 E0.02176
G1 X303.931 Y272.395 E0.02361
G1 X304.758 Y272.939 E0.03457
G1 X305.6 Y273.579 E0.03694
G1 X308.082 Y275.726 E0.11461
G1 X310.158 Y277.416 E0.09349
G1 X312.264 Y279.034 E0.09275
G1 X314.412 Y280.589 E0.09261
G1 X316.612 Y282.089 E0.09299
G1 X318.889 Y283.549 E0.09446
G1 X322.114 Y285.466 E0.13102
G1 X322.698 Y285.799 E0.02348
G1 X323.347 Y286.187 E0.02641
G1 X324.256 Y286.821 E0.0387
G1 X325.136 Y287.555 E0.04002
G1 X325.927 Y288.339 E0.03889
G1 X326.648 Y289.192 E0.03901
G1 X327.005 Y289.665 E0.0207
G1 X327.325 Y290.147 E0.0202
G1 X327.808 Y290.936 E0.03231
G1 X328.091 Y291.503 E0.02213
G1 X328.371 Y292.13 E0.02398
G1 X328.616 Y292.737 E0.02286
G1 X328.846 Y293.396 E0.02438
G1 X329.111 Y294.454 E0.03809
G1 X329.296 Y295.488 E0.03668
G1 X329.403 Y296.643 E0.04051
G1 X329.406 Y297.769 E0.03932
G1 X329.324 Y298.842 E0.03758
G1 X329.206 Y299.651 E0.02855
G1 X328.976 Y300.62 E0.03478
G1 X328.744 Y301.433 E0.02953
G1 X328.462 Y302.164 E0.02736
G1 X328.086 Y303.034 E0.0331
G1 X327.727 Y303.689 E0.02609
G1 X327.356 Y304.309 E0.02523
G1 X326.756 Y305.172 E0.03671
G1 X326.281 Y305.755 E0.02626
G1 X324.95 Y307.296 E0.07111
G1 X323.177 Y309.424 E0.09673
G1 X321.552 Y311.494 E0.09191
G1 X319.966 Y313.634 E0.09302
G1 X318.423 Y315.844 E0.09413
G1 X316.952 Y318.086 E0.09365
G1 X315.557 Y320.348 E0.09281
G1 X313.818 Y323.333 E0.12065
G1 X313.171 Y324.262 E0.03954
G1 X312.442 Y325.134 E0.03969
G1 X311.652 Y325.931 E0.03919
G1 X310.789 Y326.659 E0.03943
G1 X310.379 Y326.972 E0.01801
G1 X309.895 Y327.296 E0.02034
G1 X309.259 Y327.686 E0.02605
G1 X308.797 Y327.939 E0.0184
G1 X308.142 Y328.252 E0.02535
G1 X307.218 Y328.639 E0.03498
G1 X306.489 Y328.87 E0.02671
G1 X305.592 Y329.103 E0.03237
G1 X304.502 Y329.298 E0.03867
G1 X303.349 Y329.404 E0.04044
G1 X302.239 Y329.409 E0.03877
G1 X301.084 Y329.311 E0.04048
G1 X300.479 Y329.223 E0.02135
G1 X299.677 Y329.058 E0.02859
G1 X298.572 Y328.75 E0.04006
G1 X297.823 Y328.459 E0.02806
G1 X296.911 Y328.062 E0.03474
G1 X296.3 Y327.724 E0.02439
G1 X295.67 Y327.346 E0.02566
G1 X294.819 Y326.755 E0.03618
G1 X294.228 Y326.272 E0.02666
G1 X293.038 Y325.246 E0.05487
G1 X292.924 Y325.158 E0.00503
G1 X292.28 Y324.596 E0.02985
G1 X290.208 Y322.89 E0.09373
G1 X288.089 Y321.243 E0.09373
G1 X285.968 Y319.688 E0.09185
G1 X283.729 Y318.143 E0.095
G1 X281.522 Y316.709 E0.09192
G1 X279.247 Y315.323 E0.09303
G1 X277.361 Y314.236 E0.07602
G1 X276.63 Y313.798 E0.02976
G1 X275.745 Y313.181 E0.03768
G1 X274.862 Y312.444 E0.04017
G1 X274.079 Y311.667 E0.03852
G1 X273.343 Y310.805 E0.03958
G1 X272.975 Y310.305 E0.02168
G1 X272.647 Y309.808 E0.0208
G1 X272.303 Y309.246 E0.02301
G1 X272.05 Y308.781 E0.01849
G1 X271.745 Y308.14 E0.02479
G1 X271.468 Y307.485 E0.02484
G1 X271.167 Y306.651 E0.03096
G1 X270.888 Y305.543 E0.0399
G1 X270.708 Y304.537 E0.03569
G1 X270.544 Y302.952 E0.05565
G1 X270.233 Y300.309 E0.09294
G1 X269.844 Y297.645 E0.09402
G1 X269.389 Y295.05 E0.09201
G1 X268.854 Y292.436 E0.09318
G1 X268.13 Y289.369 E0.11005
G1 X267.926 Y288.284 E0.03856
G1 X267.813 Y287.074 E0.04244
G1 X267.809 Y285.947 E0.03936
G1 X267.895 Y284.849 E0.03846
G1 X267.999 Y284.178 E0.02371
G1 X268.174 Y283.356 E0.02935
G1 X268.474 Y282.275 E0.03918
G1 X268.776 Y281.499 E0.02908
G1 X269.125 Y280.691 E0.03074
G1 X269.496 Y280.016 E0.0269
G1 X269.871 Y279.391 E0.02545
G1 X270.494 Y278.497 E0.03805
G1 X271.227 Y277.619 E0.03994
G1 X272.013 Y276.827 E0.03897
G0 F5000 X272.284 Y277.148
G1 F1200 X273.131 Y276.432 E0.03873
G1 X273.541 Y276.119 E0.01801
G1 X273.99 Y275.819 E0.01886
G1 X274.608 Y275.439 E0.02534
G1 X275.053 Y275.195 E0.01772
G1 X275.697 Y274.887 E0.02493
G1 X276.166 Y274.686 E0.01782
G1 X276.777 Y274.452 E0.02285
G1 X277.278 Y274.294 E0.01835
G1 X278.148 Y274.067 E0.0314
G1 X279.158 Y273.885 E0.03584
G1 X283.16 Y273.445 E0.1406
G1 X285.782 Y273.076 E0.09247
G1 X288.447 Y272.624 E0.0944
G1 X291.043 Y272.109 E0.09243
G1 X294.625 Y271.274 E0.12845
G1 X295.471 Y271.131 E0.02996
G1 X296.183 Y271.049 E0.02503
G1 X297.18 Y271.003 E0.03486
G1 X298.346 Y271.048 E0.04075
G1 X299.438 Y271.191 E0.03846
G1 X300.238 Y271.368 E0.02861
G1 X300.877 Y271.544 E0.02315
G1 X301.506 Y271.737 E0.02298
G1 X302.068 Y271.946 E0.02094
G1 X302.593 Y272.179 E0.02006
G1 X303.137 Y272.442 E0.0211
G1 X303.7 Y272.746 E0.02234
G1 X304.527 Y273.29 E0.03457
G1 X305.325 Y273.897 E0.03501
G1 X307.807 Y276.044 E0.11461
G1 X309.902 Y277.749 E0.09433
G1 X312.008 Y279.367 E0.09275
G1 X314.175 Y280.936 E0.09343
G1 X316.385 Y282.443 E0.09342
G1 X318.662 Y283.903 E0.09446
G1 X321.906 Y285.831 E0.13179
G1 X322.482 Y286.159 E0.02315
G1 X323.131 Y286.547 E0.02641
G1 X323.987 Y287.144 E0.03645
G1 X324.841 Y287.854 E0.03879
G1 X325.606 Y288.61 E0.03756
G1 X326.313 Y289.445 E0.03821
G1 X326.655 Y289.897 E0.01979
G1 X326.967 Y290.367 E0.0197
G1 X327.432 Y291.124 E0.03103
G1 X327.715 Y291.691 E0.02213
G1 X327.982 Y292.288 E0.02284
G1 X328.22 Y292.876 E0.02215
G1 X328.439 Y293.498 E0.02303
G1 X328.698 Y294.528 E0.03709
G1 X328.878 Y295.527 E0.03545
G1 X328.983 Y296.645 E0.03922
G1 X328.987 Y297.737 E0.03814
G1 X328.908 Y298.782 E0.0366
G1 X328.797 Y299.554 E0.02724
G1 X328.572 Y300.505 E0.03413
G1 X328.34 Y301.318 E0.02953
G1 X328.076 Y301.997 E0.02544
G1 X327.7 Y302.867 E0.0331
G1 X327.366 Y303.474 E0.0242
G1 X327.011 Y304.069 E0.0242
G1 X326.411 Y304.932 E0.03671
G1 X325.963 Y305.48 E0.02472
G1 X324.632 Y307.021 E0.07111
G1 X322.855 Y309.155 E0.09698
G1 X321.222 Y311.235 E0.09235
G1 X319.629 Y313.384 E0.09342
G1 X318.079 Y315.604 E0.09456
G1 X316.601 Y317.856 E0.09407
G1 X315.194 Y320.137 E0.0936
G1 X313.473 Y323.093 E0.11945
G1 X312.848 Y323.993 E0.03827
G1 X312.143 Y324.839 E0.03846
G1 X311.381 Y325.61 E0.03786
G1 X310.534 Y326.325 E0.03871
G1 X310.124 Y326.638 E0.01801
G1 X309.675 Y326.938 E0.01886
G1 X309.057 Y327.318 E0.02534
G1 X308.616 Y327.56 E0.01757
G1 X307.979 Y327.865 E0.02466
G1 X307.091 Y328.239 E0.03365
G1 X306.383 Y328.464 E0.02594
G1 X305.517 Y328.69 E0.03126
G1 X304.463 Y328.88 E0.0374
G1 X303.347 Y328.984 E0.03914
G1 X302.237 Y328.989 E0.03877
G1 X301.144 Y328.895 E0.03831
G1 X300.539 Y328.807 E0.02135
G1 X299.79 Y328.653 E0.0267
G1 X298.685 Y328.345 E0.04006
G1 X297.99 Y328.074 E0.02605
G1 X297.114 Y327.694 E0.03335
G1 X296.516 Y327.364 E0.02385
G1 X295.91 Y327.001 E0.02467
G1 X295.059 Y326.41 E0.03618
G1 X294.502 Y325.954 E0.02514
G1 X293.304 Y324.921 E0.05524
G1 X293.2 Y324.842 E0.00456
G1 X292.547 Y324.272 E0.03027
G1 X290.466 Y322.558 E0.09415
G1 X288.347 Y320.911 E0.09373
G1 X286.207 Y319.342 E0.09267
G1 X283.968 Y317.797 E0.095
G1 X281.741 Y316.35 E0.09275
G1 X279.466 Y314.964 E0.09303
G1 X277.577 Y313.876 E0.07613
G1 X276.87 Y313.453 E0.02877
G1 X276.014 Y312.858 E0.03641
G1 X275.157 Y312.145 E0.03893
G1 X274.398 Y311.394 E0.03729
G1 X273.681 Y310.556 E0.03852
G1 X273.325 Y310.073 E0.02095
G1 X273.005 Y309.589 E0.02026
G1 X272.672 Y309.045 E0.02227
G1 X272.429 Y308.6 E0.01771
G1 X272.132 Y307.976 E0.02413
G1 X271.863 Y307.342 E0.02405
G1 X271.562 Y306.508 E0.03096
G1 X271.301 Y305.469 E0.03741
G1 X271.126 Y304.494 E0.03459
G1 X270.962 Y302.909 E0.05565
G1 X270.649 Y300.248 E0.09357
G1 X270.26 Y297.584 E0.09402
G1 X269.802 Y294.977 E0.09244
G1 X269.263 Y292.339 E0.09403
G1 X268.543 Y289.291 E0.10938
G1 X268.339 Y288.206 E0.03856
G1 X268.233 Y287.072 E0.03978
G1 X268.228 Y285.98 E0.03814
G1 X268.314 Y284.882 E0.03846
G1 X268.41 Y284.265 E0.02181
G1 X268.579 Y283.468 E0.02845
G1 X268.879 Y282.387 E0.03918
G1 X269.162 Y281.666 E0.02705
G1 X269.511 Y280.858 E0.03074
G1 X269.856 Y280.232 E0.02496
G1 X270.216 Y279.631 E0.02447
G1 X270.817 Y278.766 E0.03678
G1 X271.526 Y277.914 E0.03871
G1 X272.284 Y277.148 E0.03763
G1 F2400 E-1
;MESH:Nozzle-1cm - 1cm nozzle.stl(4)
G0 F5000 X282.38 Y293.049
;TYPE:WALL-INNER
G1 F2400 E1
G1 F751.1 X283.096 Y292.853 E0.04142
G1 F755.6 X283.776 Y292.58 E0.04064
G1 F763.6 X284.288 Y292.313 E0.03169
G1 F754.5 X284.914 Y291.905 E0.0415
G1 F753.4 X285.468 Y291.445 E0.04006
G1 F761.3 X285.903 Y291.017 E0.03359
G1 F764.8 X286.277 Y290.568 E0.03202
G1 F763.6 X286.611 Y290.091 E0.03196
G1 F756.8 X286.981 Y289.441 E0.04142
G1 F754.5 X287.24 Y288.847 E0.03599
G1 F762.5 X287.44 Y288.218 E0.03628
G1 X287.636 Y287.294 E0.05192
G1 F760.2 X287.673 Y286.278 E0.05605
G1 F759 X287.612 Y285.58 E0.03868
G1 F755.6 X287.509 Y285.004 E0.03245
G1 F751.1 X287.313 Y284.288 E0.04142
G1 F755.6 X287.041 Y283.609 E0.04057
G1 F764.8 X286.775 Y283.1 E0.03147
G1 F755.6 X286.364 Y282.468 E0.04181
G1 F752.2 X285.904 Y281.913 E0.04016
G1 F763.6 X285.54 Y281.53 E0.029
G1 F766 X285.042 Y281.116 E0.03543
G1 F761.3 X284.548 Y280.769 E0.03323
G1 F755.6 X283.905 Y280.404 E0.04101
G1 F760.2 X283.308 Y280.142 E0.03594
G1 F767.1 X282.681 Y279.945 E0.0359
G1 F759 X281.948 Y279.787 E0.0414
G1 F754.5 X281.222 Y279.722 E0.04049
G1 X280.621 Y279.722 E0.03338
G1 X280.04 Y279.771 E0.03239
G1 F756.8 X279.464 Y279.874 E0.0324
G1 F753.4 X278.748 Y280.071 E0.04131
G1 F756.8 X278.069 Y280.343 E0.04051
G1 F766 X277.559 Y280.609 E0.03147
G1 F757.9 X276.927 Y281.021 E0.04172
G1 F753.4 X276.372 Y281.477 E0.03996
G1 F759 X275.934 Y281.91 E0.034
G1 F762.5 X275.577 Y282.341 E0.03076
G1 F763.6 X275.237 Y282.823 E0.03237
G1 F757.9 X274.863 Y283.484 E0.04199
G1 F761.3 X274.604 Y284.068 E0.03517
G1 F767.1 X274.404 Y284.704 E0.03642
G1 F756.8 X274.248 Y285.436 E0.04145
G1 F753.4 X274.182 Y286.154 E0.04011
G1 F754.5 X274.181 Y286.771 E0.03427
G1 F759 X274.243 Y287.491 E0.0399
G1 F761.3 X274.469 Y288.483 E0.056
G1 X274.804 Y289.315 E0.04937
G1 F764.8 X275.07 Y289.825 E0.03152
G1 F755.6 X275.48 Y290.456 E0.04173
G1 F753.4 X275.936 Y291.008 E0.03983
G1 F761.3 X276.371 Y291.447 E0.03402
G1 F763.6 X276.802 Y291.808 E0.03085
G1 F762.5 X277.295 Y292.153 E0.03307
G1 F756.8 X277.939 Y292.518 E0.04099
G1 F760.2 X278.531 Y292.78 E0.03569
G1 F766 X279.162 Y292.979 E0.0362
G1 F756.8 X279.896 Y293.135 E0.04156
G1 F752.2 X280.618 Y293.202 E0.0404
G1 F753.4 X281.223 Y293.202 E0.03365
G1 X281.8 Y293.152 E0.03222
G1 F755.6 X282.38 Y293.049 E0.03267
G0 F5000 X282.498 Y293.579
;TYPE:WALL-OUTER
G1 F1200 X283.272 Y293.372 E0.02798
G1 X284.003 Y293.069 E0.02763
G1 X284.558 Y292.781 E0.02184
G1 X285.239 Y292.346 E0.02822
G1 X285.834 Y291.845 E0.02716
G1 X286.301 Y291.382 E0.02297
G1 X286.705 Y290.896 E0.02207
G1 X287.066 Y290.382 E0.02194
G1 X287.471 Y289.682 E0.02824
G1 X287.774 Y288.952 E0.0276
G1 X287.96 Y288.357 E0.02177
G1 X288.135 Y287.571 E0.02812
G1 X288.206 Y286.794 E0.02725
G1 X288.206 Y286.13 E0.02319
G1 X288.151 Y285.508 E0.02181
G1 X288.039 Y284.886 E0.02207
G1 X287.832 Y284.112 E0.02798
G1 X287.529 Y283.381 E0.02763
G1 X287.242 Y282.83 E0.0217
