;FLAVOR:RepRap
;TIME:9050
;Filament used: 35.0316m
;Layer height: 0.4
;MINX:192.449
;MINY:89.666
;MINZ:0.2
;MAXX:481.365
;MAXY:497.867
;MAXZ:15
;TARGET_MACHINE.NAME:Modix BIG-60 V4
;Generated with Cura_SteamEngine 5.10.0
T0
M104 S200
M109 S200
G28 ; home all axes
M82 ;absolute extrusion mode
M83 ;relative extrusion mode
G1 F2400 E-1
;LAYER_COUNT:38
;LAYER:0
M107
G0 F1200 X218.8 Y238.449 Z0.2
;TYPE:SKIRT
G1 F2400 E1
G1 F1200 X220.606 Y236.783 E0.08581
G1 X221.53 Y235.957 E0.04328
G1 X223.319 Y234.445 E0.0818
G1 X224.429 Y233.538 E0.05006
G1 X226.294 Y232.097 E0.08231
G1 X227.306 Y231.34 E0.04414
G1 X229.293 Y229.936 E0.08497
G1 X230.232 Y229.295 E0.03971
G1 X232.411 Y227.891 E0.09053
G1 X233.479 Y227.229 E0.04388
G1 X235.541 Y226.028 E0.08334
G1 X236.571 Y225.449 E0.04126
G1 X238.832 Y224.254 E0.08931
G1 X239.83 Y223.749 E0.03906
G1 X242.413 Y222.482 E0.10047
G1 X244.778 Y221.236 E0.09335
G1 X247.075 Y219.943 E0.09205
G1 X249.364 Y218.567 E0.09327
G1 X251.609 Y217.13 E0.09309
G1 X253.785 Y215.648 E0.09194
G1 X255.934 Y214.093 E0.09264
G1 X258.062 Y212.46 E0.09368
G1 X260.126 Y210.781 E0.09292
G1 X262.106 Y209.079 E0.09118
G1 X264.092 Y207.266 E0.09391
G1 X266.007 Y205.418 E0.09294
G1 X267.887 Y203.499 E0.09382
G1 X269.658 Y201.586 E0.09104
G1 X271.421 Y199.569 E0.09356
G1 X273.111 Y197.52 E0.09276
G1 X274.742 Y195.427 E0.09267
G1 X276.314 Y193.288 E0.0927
G1 X277.843 Y191.077 E0.09388
G1 X279.279 Y188.871 E0.09193
G1 X280.668 Y186.598 E0.09303
G1 X281.99 Y184.291 E0.09286
G1 X283.237 Y181.962 E0.09226
G1 X284.421 Y179.596 E0.0924
G1 X285.553 Y177.163 E0.09371
G1 X286.609 Y174.713 E0.09317
G1 X287.581 Y172.275 E0.09166
G1 X288.501 Y169.76 E0.09352
G1 X289.344 Y167.233 E0.09303
G1 X290.108 Y164.711 E0.09203
G1 X290.811 Y162.133 E0.09332
G1 X291.443 Y159.517 E0.09399
G1 X291.985 Y156.962 E0.09121
G1 X292.469 Y154.316 E0.09394
G1 X292.864 Y151.745 E0.09084
G1 X293.198 Y149.07 E0.09414
G1 X293.454 Y146.425 E0.0928
G1 X293.631 Y143.815 E0.09136
G1 X293.762 Y139.789 E0.14067
G1 X293.776 Y138.781 E0.03521
G1 X293.831 Y138.086 E0.02435
G1 X293.991 Y137.298 E0.02808
G1 X294.257 Y136.346 E0.03452
G1 X294.462 Y135.686 E0.02414
G1 X294.691 Y135.083 E0.02253
G1 X295.131 Y134.252 E0.03284
G1 X295.879 Y133.185 E0.04551
G1 X297.356 Y131.012 E0.09176
G1 X298.812 Y128.733 E0.09445
G1 X300.172 Y126.464 E0.09238
G1 X301.647 Y123.834 E0.10531
G1 X302.025 Y123.253 E0.02421
G1 X302.44 Y122.746 E0.02288
G1 X302.847 Y122.303 E0.02101
G1 X303.433 Y121.701 E0.02934
G1 X304.035 Y121.165 E0.02815
G1 X304.728 Y120.686 E0.02942
G1 X305.889 Y120.107 E0.04531
G1 X308.272 Y118.89 E0.09345
G1 X310.58 Y117.628 E0.09187
G1 X312.897 Y116.274 E0.09372
G1 X315.173 Y114.857 E0.09363
G1 X317.394 Y113.386 E0.09303
G1 X319.544 Y111.871 E0.09185
G1 X321.688 Y110.269 E0.09347
G1 X323.036 Y109.209 E0.05989
G1 X325.189 Y107.496 E0.09608
G1 X326.122 Y106.777 E0.04114
G1 X328.133 Y105.314 E0.08685
G1 X329.036 Y104.677 E0.03859
G1 X331.173 Y103.258 E0.08959
G1 X332.247 Y102.57 E0.04454
G1 X334.306 Y101.333 E0.08389
G1 X335.439 Y100.674 E0.04577
G1 X337.529 Y99.536 E0.08311
G1 X338.545 Y99.002 E0.04008
G1 X340.859 Y97.866 E0.09003
G1 X341.955 Y97.351 E0.04229
G1 X344.206 Y96.369 E0.08577
G1 X345.377 Y95.878 E0.04434
G1 X347.647 Y95.001 E0.08499
G1 X348.658 Y94.628 E0.03763
G1 X351.188 Y93.773 E0.09326
G1 X352.294 Y93.421 E0.04053
G1 X354.742 Y92.712 E0.08901
G1 X355.855 Y92.409 E0.04028
G1 X358.257 Y91.825 E0.08633
G1 X359.436 Y91.559 E0.04221
G1 X361.868 Y91.078 E0.08658
G1 X362.892 Y90.891 E0.03635
G1 X365.517 Y90.487 E0.09275
G1 X366.535 Y90.345 E0.0359
G1 X369.145 Y90.061 E0.09169
G1 X370.498 Y89.938 E0.04745
G1 X372.865 Y89.783 E0.08284
G1 X374.105 Y89.725 E0.04335
G1 X376.531 Y89.673 E0.08474
G1 X377.731 Y89.666 E0.04191
G1 X380.218 Y89.719 E0.08687
G1 X381.284 Y89.759 E0.03725
G1 X383.895 Y89.926 E0.09137
G1 X384.949 Y90.009 E0.03692
G1 X387.591 Y90.295 E0.09281
G1 X388.642 Y90.426 E0.03699
G1 X391.238 Y90.822 E0.09171
G1 X392.249 Y90.991 E0.0358
G1 X394.865 Y91.506 E0.09311
G1 X396.051 Y91.762 E0.04237
G1 X398.473 Y92.352 E0.08706
G1 X399.67 Y92.665 E0.04321
G1 X402.027 Y93.347 E0.08569
G1 X402.972 Y93.636 E0.03451
G1 X405.517 Y94.492 E0.09377
G1 X406.697 Y94.913 E0.04375
G1 X408.908 Y95.767 E0.08277
G1 X410.122 Y96.26 E0.04576
G1 X412.35 Y97.235 E0.08493
G1 X413.266 Y97.652 E0.03515
G1 X415.63 Y98.807 E0.09189
G1 X416.696 Y99.348 E0.04175
G1 X418.925 Y100.56 E0.08861
G1 X419.951 Y101.141 E0.04118
G1 X422.063 Y102.416 E0.08616
G1 X423.14 Y103.087 E0.04431
G1 X425.183 Y104.441 E0.08559
G1 X426.173 Y105.12 E0.04192
G1 X428.173 Y106.575 E0.08637
G1 X429.138 Y107.302 E0.04219
G1 X430.63 Y108.489 E0.06658
G1 X432.744 Y110.124 E0.09333
G1 X434.871 Y111.674 E0.09191
G1 X437.086 Y113.194 E0.09382
G1 X439.306 Y114.628 E0.0923
G1 X441.582 Y116.008 E0.09295
G1 X443.896 Y117.324 E0.09297
G1 X446.247 Y118.574 E0.09299
G1 X448.668 Y119.773 E0.09435
G1 X449.777 Y120.299 E0.04287
G1 X450.342 Y120.61 E0.02252
G1 X451.027 Y121.106 E0.02954
G1 X451.467 Y121.511 E0.02088
G1 X451.912 Y121.967 E0.02225
G1 X452.493 Y122.596 E0.0299
G1 X452.961 Y123.181 E0.02616
G1 X453.318 Y123.756 E0.02364
G1 X453.789 Y124.636 E0.03486
G1 X454.274 Y125.573 E0.03685
G1 X455.559 Y127.898 E0.09277
G1 X456.915 Y130.195 E0.09315
G1 X458.327 Y132.437 E0.09253
G1 X459.165 Y133.691 E0.05267
G1 X459.536 Y134.268 E0.02396
G1 X459.875 Y134.882 E0.02449
G1 X460.211 Y135.738 E0.03211
G1 X460.461 Y136.564 E0.03014
G1 X460.669 Y137.321 E0.02742
G1 X460.802 Y137.952 E0.02252
G1 X460.875 Y138.795 E0.02955
G1 X460.856 Y139.394 E0.02093
G1 X460.635 Y142.001 E0.09137
G1 X460.488 Y144.636 E0.09217
G1 X460.413 Y147.31 E0.09342
G1 X460.413 Y149.961 E0.09258
G1 X460.49 Y152.609 E0.09252
G1 X460.64 Y155.274 E0.09322
G1 X460.862 Y157.877 E0.09123
G1 X461.166 Y160.546 E0.09381
G1 X461.674 Y164.168 E0.12773
G1 X461.959 Y166.852 E0.09426
G1 X462.066 Y168.041 E0.04169
G1 X462.22 Y170.506 E0.08625
G1 X462.276 Y171.734 E0.04293
G1 X462.322 Y174.227 E0.08708
G1 X462.327 Y175.549 E0.04617
G1 X462.318 Y177.913 E0.08256
G1 X462.384 Y180.525 E0.09125
G1 X462.525 Y183.191 E0.09324
G1 X462.74 Y185.854 E0.0933
G1 X463.029 Y188.472 E0.09198
G1 X463.394 Y191.115 E0.09318
G1 X463.832 Y193.722 E0.09232
G1 X464.346 Y196.337 E0.09307
G1 X464.917 Y198.871 E0.09071
G1 X465.605 Y201.558 E0.09687
G1 X466.643 Y205.247 E0.13383
G1 X466.832 Y206.051 E0.02884
G1 X467.131 Y207.652 E0.05688
G1 X467.214 Y208.247 E0.02098
G1 X467.361 Y209.72 E0.0517
G1 X467.418 Y210.618 E0.03142
G1 X467.437 Y211.761 E0.03992
G1 X467.408 Y212.76 E0.0349
G1 X467.304 Y214.207 E0.05066
G1 X467.203 Y215.123 E0.03218
G1 X467.045 Y216.12 E0.03525
G1 X466.757 Y217.535 E0.05043
G1 X466.633 Y218.056 E0.0187
G1 X466.144 Y219.735 E0.06107
G1 X465.855 Y220.592 E0.03159
G1 X465.498 Y221.505 E0.03424
G1 X464.889 Y222.882 E0.05258
G1 X464.596 Y223.492 E0.02363
G1 X464.074 Y224.47 E0.03872
G1 X463.516 Y225.414 E0.0383
G1 X462.741 Y226.594 E0.0493
G1 X462.096 Y227.48 E0.03827
G1 X461.378 Y228.384 E0.04032
G1 X460.629 Y229.248 E0.03993
G1 X459.617 Y230.348 E0.0522
G1 X457.853 Y232.366 E0.0936
G1 X456.175 Y234.398 E0.09203
G1 X454.539 Y236.498 E0.09297
G1 X452.962 Y238.645 E0.09303
G1 X451.442 Y240.841 E0.09327
G1 X450.001 Y243.054 E0.09223
G1 X448.613 Y245.326 E0.09298
G1 X447.282 Y247.648 E0.09347
G1 X446.064 Y249.923 E0.09012
G1 X444.838 Y252.373 E0.09568
G1 X443.721 Y254.771 E0.09239
G1 X442.687 Y257.172 E0.0913
G1 X441.693 Y259.664 E0.0937
G1 X440.773 Y262.175 E0.09339
G1 X439.937 Y264.681 E0.09226
G1 X439.17 Y267.213 E0.09239
G1 X438.467 Y269.791 E0.09332
G1 X437.837 Y272.4 E0.09373
G1 X437.29 Y274.975 E0.09193
G1 X436.811 Y277.592 E0.09291
G1 X436.413 Y280.178 E0.09137
G1 X436.079 Y282.853 E0.09414
G1 X435.823 Y285.499 E0.09284
G1 X435.645 Y288.124 E0.09188
G1 X435.539 Y290.793 E0.09328
G1 X435.508 Y293.483 E0.09395
G1 X435.552 Y296.071 E0.09039
G1 X435.673 Y298.762 E0.09407
G1 X435.866 Y301.39 E0.09203
G1 X436.139 Y304.075 E0.09425
G1 X436.478 Y306.66 E0.09105
G1 X436.898 Y309.288 E0.09294
G1 X437.399 Y311.954 E0.09473
G1 X437.954 Y314.494 E0.0908
G1 X438.594 Y317.07 E0.0927
G1 X439.314 Y319.663 E0.09398
G1 X440.101 Y322.204 E0.0929
G1 X440.949 Y324.697 E0.09196
G1 X441.885 Y327.215 E0.09382
G1 X442.863 Y329.63 E0.09099
G1 X443.946 Y332.106 E0.09438
G1 X445.078 Y334.501 E0.09251
G1 X446.277 Y336.863 E0.09251
G1 X447.548 Y339.207 E0.09312
G1 X448.867 Y341.478 E0.09172
G1 X450.288 Y343.773 E0.09427
G1 X451.722 Y345.95 E0.09104
G1 X453.29 Y348.188 E0.09543
G1 X454.854 Y350.293 E0.09158
G1 X456.485 Y352.364 E0.09206
G1 X458.203 Y354.421 E0.0936
G1 X460.641 Y357.182 E0.12863
G1 X462.322 Y359.191 E0.09148
G1 X463.043 Y360.083 E0.04006
G1 X464.593 Y362.115 E0.08925
G1 X465.342 Y363.129 E0.04403
G1 X466.746 Y365.147 E0.08585
G1 X467.421 Y366.149 E0.04219
G1 X468.746 Y368.244 E0.08657
G1 X469.372 Y369.269 E0.04194
G1 X470.591 Y371.391 E0.08546
G1 X471.208 Y372.504 E0.04444
G1 X472.321 Y374.654 E0.08455
G1 X472.871 Y375.759 E0.04311
G1 X473.893 Y377.958 E0.08468
G1 X474.411 Y379.126 E0.04462
G1 X475.362 Y381.427 E0.08695
G1 X475.812 Y382.57 E0.0429
G1 X476.654 Y384.896 E0.08639
G1 X477.054 Y386.058 E0.04292
G1 X477.795 Y388.423 E0.08655
G1 X478.128 Y389.547 E0.04094
G1 X478.784 Y392 E0.08868
G1 X479.068 Y393.143 E0.04113
G1 X479.601 Y395.554 E0.08623
G1 X479.848 Y396.766 E0.0432
G1 X480.276 Y399.208 E0.08658
G1 X480.444 Y400.261 E0.03724
G1 X480.787 Y402.873 E0.092
G1 X480.924 Y404.065 E0.0419
G1 X481.137 Y406.504 E0.0855
G1 X481.227 Y407.762 E0.04405
G1 X481.334 Y410.25 E0.08697
G1 X481.364 Y411.291 E0.03637
G1 X481.365 Y413.892 E0.09084
G1 X481.346 Y415.149 E0.0439
G1 X481.238 Y417.601 E0.08571
G1 X481.176 Y418.679 E0.03771
G1 X480.949 Y421.328 E0.09285
G1 X480.847 Y422.32 E0.03483
G1 X480.51 Y424.911 E0.09125
G1 X480.313 Y426.245 E0.04709
G1 X479.896 Y428.607 E0.08376
G1 X479.659 Y429.84 E0.04385
G1 X479.128 Y432.245 E0.08601
G1 X478.894 Y433.238 E0.03563
G1 X478.22 Y435.771 E0.09154
G1 X477.919 Y436.837 E0.03868
G1 X477.137 Y439.34 E0.09158
G1 X476.808 Y440.333 E0.03653
G1 X475.912 Y442.816 E0.09219
G1 X475.515 Y443.859 E0.03897
G1 X474.525 Y446.264 E0.09083
G1 X474.056 Y447.351 E0.04134
G1 X473.024 Y449.574 E0.08559
G1 X472.478 Y450.702 E0.04377
G1 X471.351 Y452.878 E0.08558
G1 X470.833 Y453.845 E0.03831
G1 X469.54 Y456.104 E0.0909
G1 X468.905 Y457.169 E0.0433
G1 X467.592 Y459.243 E0.08573
G1 X466.99 Y460.163 E0.0384
G1 X465.483 Y462.33 E0.09218
G1 X464.799 Y463.278 E0.04083
G1 X463.273 Y465.28 E0.08791
G1 X462.612 Y466.121 E0.03736
G1 X460.967 Y468.093 E0.08968
G1 X460.12 Y469.077 E0.04534
G1 X458.472 Y470.886 E0.08546
G1 X457.668 Y471.741 E0.04099
G1 X455.908 Y473.514 E0.08725
G1 X455.122 Y474.282 E0.03838
G1 X453.208 Y476.052 E0.09104
G1 X452.284 Y476.878 E0.04328
G1 X450.495 Y478.39 E0.0818
G1 X449.386 Y479.296 E0.05001
G1 X447.539 Y480.725 E0.08155
G1 X446.634 Y481.405 E0.03953
G1 X444.521 Y482.899 E0.09037
G1 X443.583 Y483.54 E0.03968
G1 X441.41 Y484.941 E0.09029
G1 X440.407 Y485.564 E0.04124
G1 X438.342 Y486.768 E0.08348
G1 X437.243 Y487.386 E0.04403
G1 X434.979 Y488.583 E0.08944
G1 X433.978 Y489.089 E0.03917
G1 X431.666 Y490.182 E0.08931
G1 X430.472 Y490.721 E0.04575
G1 X428.27 Y491.646 E0.08341
G1 X427.26 Y492.052 E0.03802
G1 X424.81 Y492.959 E0.09124
G1 X423.674 Y493.359 E0.04206
G1 X421.268 Y494.132 E0.08826
G1 X420.151 Y494.471 E0.04077
G1 X417.722 Y495.136 E0.08795
G1 X416.702 Y495.398 E0.03678
G1 X414.138 Y495.985 E0.09186
G1 X412.986 Y496.227 E0.04111
G1 X410.501 Y496.68 E0.08821
G1 X409.271 Y496.883 E0.04354
G1 X406.901 Y497.21 E0.08355
G1 X405.66 Y497.36 E0.04366
G1 X403.148 Y497.597 E0.08812
G1 X401.848 Y497.693 E0.04552
G1 X399.54 Y497.809 E0.0807
G1 X398.442 Y497.846 E0.03837
G1 X395.786 Y497.867 E0.09276
G1 X394.61 Y497.857 E0.04107
G1 X392.167 Y497.766 E0.08538
G1 X390.962 Y497.704 E0.04214
G1 X388.48 Y497.504 E0.08696
G1 X387.364 Y497.399 E0.03915
G1 X384.77 Y497.079 E0.09128
G1 X383.657 Y496.923 E0.03925
G1 X381.152 Y496.502 E0.08871
G1 X380.044 Y496.299 E0.03934
G1 X377.553 Y495.768 E0.08895
G1 X376.295 Y495.479 E0.04508
G1 X373.911 Y494.859 E0.08603
G1 X372.897 Y494.581 E0.03672
G1 X370.375 Y493.811 E0.09209
G1 X369.246 Y493.445 E0.04145
G1 X366.953 Y492.633 E0.08495
G1 X365.809 Y492.207 E0.04263
G1 X363.483 Y491.268 E0.0876
G1 X362.317 Y490.773 E0.04424
G1 X360.054 Y489.74 E0.08688
G1 X359.024 Y489.25 E0.03983
G1 X356.743 Y488.091 E0.08935
G1 X355.841 Y487.615 E0.03562
G1 X353.496 Y486.291 E0.09405
G1 X352.656 Y485.799 E0.034
G1 X350.268 Y484.312 E0.09824
G1 X349.278 Y483.678 E0.04106
G1 X280.488 Y438.644 E2.87138
G1 X279.574 Y438.029 E0.03847
G1 X278.526 Y437.28 E0.04499
G1 X277.727 Y436.662 E0.03528
G1 X276.559 Y435.675 E0.0534
G1 X275.551 Y434.738 E0.04806
G1 X274.781 Y433.962 E0.03818
G1 X273.835 Y432.923 E0.04907
G1 X272.776 Y431.638 E0.05815
G1 X272.105 Y430.756 E0.0387
G1 X271.369 Y429.696 E0.04507
G1 X270.656 Y428.569 E0.04657
G1 X270.111 Y427.625 E0.03807
G1 X269.513 Y426.486 E0.04493
G1 X268.693 Y424.691 E0.06892
G1 X268.39 Y423.947 E0.02805
G1 X267.759 Y422.175 E0.06569
G1 X266.859 Y419.307 E0.10498
G1 X266.003 Y416.809 E0.09222
G1 X265.075 Y414.332 E0.09238
G1 X264.061 Y411.844 E0.09383
G1 X262.999 Y409.432 E0.09204
G1 X261.858 Y407.029 E0.0929
G1 X260.65 Y404.659 E0.0929
G1 X259.372 Y402.318 E0.09314
G1 X258.044 Y400.043 E0.092
G1 X256.63 Y397.771 E0.09346
G1 X255.182 Y395.583 E0.09163
G1 X253.639 Y393.388 E0.0937
G1 X252.045 Y391.251 E0.09311
G1 X250.394 Y389.165 E0.09291
G1 X248.704 Y387.15 E0.09184
G1 X246.919 Y385.138 E0.09393
G1 X245.115 Y383.218 E0.09201
G1 X243.232 Y381.324 E0.09327
G1 X241.331 Y379.519 E0.09155
G1 X239.314 Y377.707 E0.09469
G1 X237.331 Y376.027 E0.09076
G1 X235.215 Y374.331 E0.0947
G1 X233.138 Y372.763 E0.09088
G1 X230.936 Y371.196 E0.09438
G1 X229.587 Y370.279 E0.05697
G1 X227.51 Y368.812 E0.0888
G1 X226.543 Y368.105 E0.04183
G1 X224.596 Y366.598 E0.08598
G1 X223.63 Y365.825 E0.04321
G1 X221.724 Y364.213 E0.08718
G1 X220.828 Y363.432 E0.04151
G1 X219.028 Y361.769 E0.08558
G1 X218.121 Y360.902 E0.04382
G1 X216.356 Y359.127 E0.08742
G1 X215.568 Y358.309 E0.03967
G1 X213.848 Y356.42 E0.08922
G1 X213.077 Y355.541 E0.04083
G1 X211.476 Y353.623 E0.08725
G1 X210.808 Y352.799 E0.03704
G1 X209.219 Y350.72 E0.09138
G1 X208.564 Y349.834 E0.03848
G1 X207.085 Y347.71 E0.09039
G1 X206.364 Y346.64 E0.04506
G1 X205.104 Y344.651 E0.08223
G1 X204.479 Y343.629 E0.04184
G1 X203.207 Y341.416 E0.08914
G1 X202.605 Y340.329 E0.04339
G1 X201.46 Y338.115 E0.08705
G1 X200.942 Y337.075 E0.04058
G1 X199.931 Y334.9 E0.08376
G1 X199.403 Y333.709 E0.0455
G1 X198.453 Y331.409 E0.08691
G1 X198.056 Y330.408 E0.03761
G1 X197.16 Y327.939 E0.09173
G1 X196.751 Y326.75 E0.04391
G1 X196.019 Y324.412 E0.08556
G1 X195.686 Y323.288 E0.04094
G1 X195.03 Y320.835 E0.08868
G1 X194.746 Y319.692 E0.04113
G1 X194.213 Y317.281 E0.08623
G1 X193.966 Y316.069 E0.0432
G1 X193.55 Y313.694 E0.08421
G1 X193.348 Y312.418 E0.04512
G1 X193.027 Y309.962 E0.0865
G1 X192.89 Y308.768 E0.04197
G1 X192.673 Y306.279 E0.08725
G1 X192.587 Y305.073 E0.04222
G1 X192.48 Y302.584 E0.087
G1 X192.45 Y301.544 E0.03634
G1 X192.449 Y298.906 E0.09213
G1 X192.468 Y297.687 E0.04258
G1 X192.577 Y295.212 E0.08652
G1 X192.639 Y294.151 E0.03712
G1 X192.865 Y291.507 E0.09267
G1 X192.967 Y290.515 E0.03483
G1 X193.304 Y287.924 E0.09125
G1 X193.501 Y286.59 E0.04709
G1 X193.923 Y284.205 E0.08459
G1 X194.155 Y282.995 E0.04303
G1 X194.686 Y280.59 E0.08601
G1 X194.92 Y279.597 E0.03563
G1 X195.605 Y277.026 E0.09292
G1 X195.937 Y275.856 E0.04247
G1 X196.677 Y273.495 E0.08641
G1 X197.006 Y272.502 E0.03653
G1 X197.918 Y269.976 E0.09379
G1 X198.3 Y268.974 E0.03745
G1 X199.289 Y266.571 E0.09075
G1 X199.758 Y265.483 E0.04138
G1 X200.801 Y263.237 E0.08648
G1 X201.335 Y262.134 E0.0428
G1 X202.466 Y259.949 E0.08592
G1 X202.982 Y258.987 E0.03812
G1 X204.274 Y256.731 E0.09079
G1 X204.909 Y255.666 E0.0433
G1 X206.228 Y253.587 E0.08598
G1 X206.91 Y252.545 E0.04349
G1 X208.331 Y250.505 E0.08682
G1 X209.015 Y249.557 E0.04083
G1 X210.541 Y247.555 E0.08791
G1 X211.202 Y246.714 E0.03736
