;FLAVOR:RepRap
;TIME:17346
;Filament used: 71.2263m
;Layer height: 0.4
;MINX:139.481
;MINY:139.494
;MINZ:0.2
;MAXX:460.519
;MAXY:460.498
;MAXZ:7.4
;TARGET_MACHINE.NAME:Modix BIG-60 V4
;Generated with Cura_SteamEngine 5.10.0
T0
M104 S200
M109 S200
G28 ; home all axes
M82 ;absolute extrusion mode
M83 ;relative extrusion mode
G1 F2400 E-1
;LAYER_COUNT:19
;LAYER:0
M107
G0 F1200 X184.453 Y188.55 Z0.2
;TYPE:SKIRT
G1 F2400 E1
G1 F1200 X188.568 Y184.444 E0.20301
G1 X189.338 Y183.697 E0.03747
G1 X193.731 Y179.678 E0.20793
G1 X194.486 Y179.008 E0.03525
G1 X199.048 Y175.187 E0.20782
G1 X199.998 Y174.418 E0.04268
G1 X204.595 Y170.896 E0.20224
G1 X205.63 Y170.132 E0.04493
G1 X210.292 Y166.875 E0.19861
G1 X211.272 Y166.214 E0.04128
G1 X216.171 Y163.097 E0.20278
G1 X217.081 Y162.535 E0.03735
G1 X222.239 Y159.562 E0.20791
G1 X223.288 Y158.978 E0.04193
G1 X228.439 Y156.302 E0.20272
G1 X229.486 Y155.78 E0.04086
G1 X234.726 Y153.341 E0.20185
G1 X235.757 Y152.879 E0.03946
G1 X241.205 Y150.624 E0.20592
G1 X242.324 Y150.183 E0.042
G1 X247.782 Y148.201 E0.20279
G1 X248.873 Y147.824 E0.04031
G1 X254.417 Y146.079 E0.20298
G1 X255.425 Y145.776 E0.03676
G1 X261.186 Y144.235 E0.20827
G1 X262.364 Y143.939 E0.04242
G1 X267.983 Y142.696 E0.20098
G1 X269.036 Y142.478 E0.03755
G1 X274.888 Y141.447 E0.20752
G1 X276.052 Y141.262 E0.04116
G1 X281.786 Y140.509 E0.20197
G1 X282.846 Y140.386 E0.03727
G1 X288.737 Y139.868 E0.20653
G1 X289.99 Y139.778 E0.04387
G1 X295.773 Y139.526 E0.20215
G1 X296.95 Y139.495 E0.04112
G1 X302.672 Y139.494 E0.19983
G1 X303.967 Y139.514 E0.04523
G1 X309.733 Y139.768 E0.20156
G1 X310.945 Y139.841 E0.0424
G1 X316.72 Y140.344 E0.20244
G1 X317.945 Y140.473 E0.04302
G1 X323.569 Y141.212 E0.1981
G1 X324.841 Y141.399 E0.0449
G1 X330.498 Y142.397 E0.20061
G1 X331.774 Y142.642 E0.04538
G1 X337.391 Y143.887 E0.20092
G1 X338.39 Y144.123 E0.03585
G1 X344.189 Y145.672 E0.20962
G1 X345.269 Y145.979 E0.03921
G1 X350.812 Y147.725 E0.20296
G1 X351.98 Y148.114 E0.04299
G1 X357.405 Y150.085 E0.20157
G1 X358.416 Y150.47 E0.03778
G1 X363.886 Y152.73 E0.20669
G1 X364.84 Y153.141 E0.03628
G1 X370.263 Y155.664 E0.20888
G1 X371.161 Y156.097 E0.03482
G1 X376.507 Y158.874 E0.21039
G1 X377.499 Y159.409 E0.03936
G1 X382.509 Y162.296 E0.20194
G1 X383.521 Y162.903 E0.04121
G1 X388.391 Y165.997 E0.2015
G1 X389.51 Y166.735 E0.04681
G1 X394.209 Y170.021 E0.20025
G1 X395.09 Y170.656 E0.03793
G1 X399.783 Y174.25 E0.20643
G1 X400.718 Y174.99 E0.04164
G1 X405.125 Y178.68 E0.20073
G1 X406.103 Y179.526 E0.04516
G1 X410.352 Y183.415 E0.20116
G1 X411.208 Y184.223 E0.04111
G1 X415.316 Y188.32 E0.20262
G1 X416.035 Y189.06 E0.03603
G1 X420.051 Y193.427 E0.20719
G1 X420.791 Y194.258 E0.03886
G1 X424.58 Y198.758 E0.20544
G1 X425.387 Y199.75 E0.04466
G1 X428.894 Y204.308 E0.20084
G1 X429.609 Y205.269 E0.04183
G1 X432.931 Y210.003 E0.20197
G1 X433.685 Y211.118 E0.04701
G1 X436.712 Y215.855 E0.19632
G1 X437.391 Y216.959 E0.04526
G1 X440.283 Y221.953 E0.20154
G1 X440.773 Y222.826 E0.03496
G1 X443.552 Y228.139 E0.2094
G1 X444.005 Y229.04 E0.03522
G1 X446.525 Y234.415 E0.20732
G1 X446.978 Y235.421 E0.03853
G1 X449.26 Y240.901 E0.20731
G1 X449.728 Y242.089 E0.04459
G1 X451.685 Y247.44 E0.19898
G1 X452.11 Y248.671 E0.04548
G1 X453.8 Y253.997 E0.19514
G1 X454.183 Y255.278 E0.04669
G1 X455.694 Y260.873 E0.2024
G1 X455.984 Y262.019 E0.04128
G1 X457.233 Y267.614 E0.2002
G1 X457.488 Y268.847 E0.04397
G1 X458.494 Y274.491 E0.20021
G1 X458.669 Y275.56 E0.03783
G1 X459.445 Y281.333 E0.20342
G1 X459.607 Y282.719 E0.04873
G1 X460.115 Y288.397 E0.19909
G1 X460.208 Y289.649 E0.04384
G1 X460.469 Y295.357 E0.19955
G1 X460.507 Y296.623 E0.04423
G1 X460.519 Y302.415 E0.20228
G1 X460.502 Y303.612 E0.04181
G1 X460.261 Y309.384 E0.20175
G1 X460.2 Y310.472 E0.03806
G1 X459.701 Y316.363 E0.20647
G1 X459.595 Y317.44 E0.03779
G1 X458.834 Y323.338 E0.20768
G1 X458.662 Y324.509 E0.04133
G1 X457.668 Y330.222 E0.20251
G1 X457.462 Y331.301 E0.03836
G1 X456.194 Y337.098 E0.20724
G1 X455.932 Y338.203 E0.03966
G1 X454.438 Y343.833 E0.20342
G1 X454.112 Y344.988 E0.04191
G1 X452.39 Y350.497 E0.20157
G1 X452 Y351.675 E0.04334
G1 X450.034 Y357.124 E0.2023
G1 X449.606 Y358.247 E0.04197
G1 X447.418 Y363.568 E0.20092
G1 X446.931 Y364.698 E0.04297
G1 X444.499 Y369.951 E0.20216
G1 X444.069 Y370.845 E0.03465
G1 X441.315 Y376.176 E0.20955
G1 X440.842 Y377.06 E0.03501
G1 X437.866 Y382.259 E0.20921
G1 X437.267 Y383.265 E0.04089
G1 X434.164 Y388.164 E0.20252
G1 X433.491 Y389.192 E0.04291
G1 X430.175 Y393.955 E0.20268
G1 X429.503 Y394.889 E0.04018
G1 X426.005 Y399.478 E0.20151
G1 X425.209 Y400.489 E0.04494
G1 X421.528 Y404.901 E0.20067
G1 X420.712 Y405.848 E0.04366
G1 X416.809 Y410.133 E0.20242
G1 X416.025 Y410.966 E0.03995
G1 X411.946 Y415.071 E0.2021
G1 X411.03 Y415.964 E0.04468
G1 X406.817 Y419.849 E0.20014
G1 X406.025 Y420.559 E0.03715
G1 X401.504 Y424.38 E0.20672
G1 X400.531 Y425.177 E0.04392
G1 X396.001 Y428.678 E0.19994
G1 X395.043 Y429.392 E0.04173
G1 X390.261 Y432.765 E0.20437
G1 X389.233 Y433.465 E0.04343
G1 X384.399 Y436.569 E0.20063
G1 X383.401 Y437.187 E0.04099
G1 X378.459 Y440.063 E0.19969
G1 X377.317 Y440.704 E0.04574
G1 X372.208 Y443.388 E0.20155
G1 X371.112 Y443.941 E0.04287
G1 X365.917 Y446.386 E0.20051
G1 X364.766 Y446.904 E0.04408
G1 X359.452 Y449.13 E0.20121
G1 X358.452 Y449.531 E0.03763
G1 X352.862 Y451.591 E0.20805
G1 X351.772 Y451.973 E0.04034
G1 X346.271 Y453.731 E0.20168
G1 X345.211 Y454.052 E0.03868
G1 X339.594 Y455.584 E0.20333
G1 X338.301 Y455.914 E0.0466
G1 X332.667 Y457.185 E0.2017
G1 X331.495 Y457.429 E0.04181
G1 X325.812 Y458.454 E0.20167
G1 X324.621 Y458.651 E0.04216
G1 X318.993 Y459.416 E0.19835
G1 X317.67 Y459.573 E0.04653
G1 X311.965 Y460.096 E0.20007
G1 X310.678 Y460.194 E0.04508
G1 X304.897 Y460.468 E0.20212
G1 X303.948 Y460.498 E0.03316
G1 X301.408 Y460.432 E0.08873
G1 X298.759 Y460.432 E0.09251
G1 X296.322 Y460.498 E0.08514
G1 X295.595 Y460.493 E0.02539
G1 X289.551 Y460.203 E0.21132
G1 X288.497 Y460.137 E0.03688
G1 X282.653 Y459.604 E0.20494
G1 X281.354 Y459.463 E0.04563
G1 X275.748 Y458.701 E0.19758
G1 X274.502 Y458.511 E0.04402
G1 X268.802 Y457.482 E0.20228
G1 X267.732 Y457.274 E0.03807
G1 X261.954 Y455.97 E0.20686
G1 X260.771 Y455.682 E0.04252
G1 X255.213 Y454.171 E0.20115
G1 X254.168 Y453.869 E0.03799
G1 X248.506 Y452.061 E0.20757
G1 X247.551 Y451.741 E0.03517
G1 X241.926 Y449.673 E0.2093
G1 X240.771 Y449.225 E0.04326
G1 X235.432 Y446.989 E0.20215
G1 X234.42 Y446.545 E0.03859
G1 X229.172 Y444.074 E0.20258
G1 X228.177 Y443.589 E0.03866
G1 X222.954 Y440.847 E0.20601
G1 X221.998 Y440.326 E0.03802
G1 X216.921 Y437.374 E0.2051
G1 X215.811 Y436.703 E0.0453
G1 X210.983 Y433.602 E0.20039
G1 X209.977 Y432.932 E0.04221
G1 X205.229 Y429.584 E0.20289
G1 X204.23 Y428.856 E0.04317
G1 X199.699 Y425.354 E0.19999
G1 X198.858 Y424.685 E0.03753
G1 X194.32 Y420.854 E0.2074
G1 X193.421 Y420.071 E0.04163
G1 X189.173 Y416.151 E0.20187
G1 X188.386 Y415.405 E0.03787
G1 X184.2 Y411.194 E0.20736
G1 X183.361 Y410.322 E0.04226
G1 X179.52 Y406.105 E0.1992
G1 X178.636 Y405.1 E0.04674
G1 X174.945 Y400.673 E0.20129
G1 X174.229 Y399.785 E0.03984
G1 X170.722 Y395.185 E0.20201
G1 X170.046 Y394.274 E0.03962
G1 X166.656 Y389.402 E0.20728
G1 X166.015 Y388.446 E0.0402
G1 X162.898 Y383.522 E0.20352
G1 X162.289 Y382.525 E0.0408
G1 X159.385 Y377.463 E0.20381
G1 X158.915 Y376.617 E0.0338
G1 X156.163 Y371.301 E0.20905
G1 X155.668 Y370.308 E0.03875
G1 X153.205 Y364.991 E0.20464
G1 X152.748 Y363.962 E0.03932
G1 X150.495 Y358.49 E0.20666
G1 X150.06 Y357.384 E0.04151
G1 X148.088 Y351.915 E0.20303
G1 X147.684 Y350.735 E0.04356
G1 X145.969 Y345.245 E0.20087
G1 X145.637 Y344.119 E0.041
G1 X144.153 Y338.526 E0.20208
G1 X143.877 Y337.411 E0.04011
G1 X142.618 Y331.675 E0.20509
G1 X142.381 Y330.504 E0.04172
G1 X141.38 Y324.746 E0.2041
G1 X141.197 Y323.58 E0.04122
G1 X140.46 Y317.864 E0.20127
G1 X140.339 Y316.806 E0.03719
G1 X139.833 Y310.889 E0.20739
G1 X139.75 Y309.701 E0.04159
G1 X139.514 Y304 E0.19927
G1 X139.481 Y302.681 E0.04608
G1 X139.494 Y296.925 E0.20102
G1 X139.514 Y295.739 E0.04142
G1 X139.781 Y289.929 E0.20312
G1 X139.843 Y288.9 E0.036
G1 X140.368 Y282.995 E0.20703
G1 X140.5 Y281.757 E0.04348
G1 X141.266 Y276.031 E0.20175
G1 X141.448 Y274.816 E0.04291
G1 X142.46 Y269.138 E0.20142
G1 X142.697 Y267.918 E0.0434
G1 X143.937 Y262.374 E0.1984
G1 X144.254 Y261.065 E0.04704
G1 X145.751 Y255.514 E0.20078
G1 X146.087 Y254.353 E0.04221
G1 X147.829 Y248.867 E0.20102
G1 X148.225 Y247.688 E0.04343
G1 X150.211 Y242.257 E0.20195
G1 X150.632 Y241.158 E0.0411
G1 X152.855 Y235.818 E0.202
G1 X153.361 Y234.659 E0.04417
G1 X155.796 Y229.459 E0.20052
G1 X156.309 Y228.406 E0.04091
G1 X159.001 Y223.254 E0.20301
G1 X159.563 Y222.222 E0.04104
G1 X162.483 Y217.177 E0.20357
G1 X163.126 Y216.108 E0.04357
G1 X166.195 Y211.308 E0.19897
G1 X166.9 Y210.242 E0.04463
G1 X170.209 Y205.529 E0.20111
G1 X170.897 Y204.582 E0.04088
G1 X174.448 Y199.965 E0.20341
G1 X175.212 Y199.005 E0.04285
G1 X178.944 Y194.568 E0.20248
G1 X179.61 Y193.8 E0.0355
G1 X183.625 Y189.423 E0.20743
G1 X184.453 Y188.55 E0.04202
G0 X184.75 Y188.847
G1 X188.86 Y184.746 E0.20277
G1 X189.622 Y184.007 E0.03707
G1 X194.01 Y179.992 E0.20771
G1 X194.756 Y179.33 E0.03483
G1 X199.312 Y175.513 E0.20757
G1 X200.253 Y174.751 E0.04229
G1 X204.844 Y171.234 E0.20197
G1 X205.871 Y170.476 E0.04458
G1 X210.527 Y167.223 E0.19836
G1 X211.497 Y166.568 E0.04088
G1 X216.392 Y163.454 E0.20261
G1 X217.291 Y162.899 E0.0369
G1 X222.443 Y159.929 E0.20768
G1 X223.482 Y159.351 E0.04152
G1 X228.627 Y156.678 E0.20248
G1 X229.663 Y156.161 E0.04044
G1 X234.898 Y153.724 E0.20166
G1 X235.918 Y153.267 E0.03903
G1 X241.359 Y151.015 E0.20565
G1 X242.467 Y150.578 E0.0416
G1 X247.919 Y148.598 E0.20257
G1 X248.999 Y148.225 E0.0399
G1 X254.538 Y146.481 E0.2028
G1 X255.534 Y146.182 E0.03632
G1 X261.288 Y144.642 E0.20802
G1 X262.455 Y144.349 E0.04202
G1 X268.068 Y143.107 E0.20077
G1 X269.109 Y142.892 E0.03712
G1 X274.954 Y141.862 E0.20727
G1 X276.107 Y141.678 E0.04078
G1 X281.835 Y140.926 E0.20176
G1 X282.883 Y140.804 E0.03685
G1 X288.767 Y140.287 E0.20628
G1 X290.008 Y140.198 E0.04345
G1 X295.784 Y139.946 E0.20191
G1 X296.95 Y139.915 E0.04073
G1 X302.665 Y139.914 E0.19959
G1 X303.949 Y139.934 E0.04485
G1 X309.708 Y140.187 E0.20132
G1 X310.909 Y140.259 E0.04202
G1 X316.676 Y140.762 E0.20217
G1 X317.89 Y140.889 E0.04263
G1 X323.508 Y141.627 E0.19788
G1 X324.768 Y141.813 E0.04448
G1 X330.419 Y142.809 E0.20039
G1 X331.683 Y143.052 E0.04495
G1 X337.295 Y144.296 E0.20075
G1 X338.282 Y144.529 E0.03542
G1 X344.074 Y146.076 E0.20937
G1 X345.143 Y146.38 E0.03881
G1 X350.679 Y148.123 E0.20269
G1 X351.837 Y148.509 E0.04263
G1 X357.256 Y150.478 E0.20135
G1 X358.256 Y150.858 E0.03736
G1 X363.72 Y153.116 E0.20647
G1 X364.663 Y153.522 E0.03586
G1 X370.08 Y156.042 E0.20865
G1 X370.967 Y156.47 E0.03439
G1 X376.308 Y159.244 E0.21018
G1 X377.289 Y159.773 E0.03892
G1 X382.293 Y162.656 E0.20168
G1 X383.296 Y163.257 E0.04083
G1 X388.16 Y166.348 E0.20126
G1 X389.269 Y167.079 E0.04639
G1 X393.963 Y170.362 E0.20005
G1 X394.844 Y170.997 E0.03793
G1 X399.522 Y174.579 E0.20576
G1 X400.448 Y175.312 E0.04124
G1 X404.85 Y178.998 E0.20051
G1 X405.819 Y179.836 E0.04474
G1 X410.064 Y183.721 E0.20096
G1 X410.911 Y184.52 E0.04066
G1 X415.015 Y188.613 E0.20242
G1 X415.726 Y189.344 E0.03561
G1 X419.738 Y193.707 E0.207
G1 X420.47 Y194.528 E0.03841
G1 X424.254 Y199.023 E0.2052
G1 X425.054 Y200.006 E0.04426
G1 X428.557 Y204.559 E0.20062
G1 X429.265 Y205.51 E0.04141
G1 X432.583 Y210.238 E0.20172
G1 X433.331 Y211.344 E0.04663
G1 X436.354 Y216.075 E0.19607
G1 X437.028 Y217.17 E0.0449
G1 X439.917 Y222.158 E0.20131
G1 X440.401 Y223.021 E0.03455
G1 X443.177 Y228.328 E0.20916
G1 X443.625 Y229.218 E0.0348
G1 X446.142 Y234.587 E0.20708
G1 X446.59 Y235.582 E0.03811
G1 X448.869 Y241.055 E0.20704
G1 X449.334 Y242.233 E0.04423
G1 X451.288 Y247.577 E0.19871
G1 X451.71 Y248.798 E0.04512
G1 X453.398 Y254.117 E0.19489
G1 X453.778 Y255.387 E0.0463
G1 X455.287 Y260.976 E0.20217
G1 X455.574 Y262.111 E0.04089
G1 X456.822 Y267.699 E0.19996
G1 X457.075 Y268.921 E0.04358
G1 X458.08 Y274.559 E0.2
G1 X458.253 Y275.616 E0.0374
G1 X459.028 Y281.382 E0.20318
G1 X459.189 Y282.756 E0.04831
G1 X459.696 Y288.428 E0.19887
G1 X459.788 Y289.668 E0.04342
G1 X460.049 Y295.37 E0.19934
G1 X460.087 Y296.624 E0.04381
G1 X460.099 Y302.409 E0.20203
G1 X460.082 Y303.595 E0.04142
G1 X459.842 Y309.361 E0.20154
G1 X459.782 Y310.437 E0.03764
G1 X459.283 Y316.322 E0.20626
G1 X459.178 Y317.386 E0.03734
G1 X458.418 Y323.277 E0.20744
G1 X458.248 Y324.437 E0.04094
G1 X457.255 Y330.144 E0.2023
G1 X457.052 Y331.211 E0.03793
G1 X455.785 Y337.001 E0.20699
G1 X455.526 Y338.095 E0.03926
G1 X454.034 Y343.719 E0.2032
G1 X453.711 Y344.863 E0.04151
G1 X451.991 Y350.365 E0.20132
G1 X451.605 Y351.532 E0.04293
G1 X449.641 Y356.975 E0.20208
G1 X449.218 Y358.087 E0.04155
G1 X447.032 Y363.402 E0.2007
G1 X446.55 Y364.522 E0.04258
G1 X444.121 Y369.769 E0.20192
G1 X443.696 Y370.652 E0.03422
G1 X440.945 Y375.978 E0.20935
G1 X440.478 Y376.851 E0.03458
G1 X437.505 Y382.044 E0.20897
G1 X436.912 Y383.04 E0.04048
G1 X433.813 Y387.934 E0.2023
G1 X433.146 Y388.952 E0.0425
G1 X429.834 Y393.71 E0.20246
G1 X429.169 Y394.634 E0.03976
G1 X425.675 Y399.218 E0.20129
G1 X424.886 Y400.22 E0.04454
G1 X421.21 Y404.627 E0.20042
G1 X420.401 Y405.565 E0.04326
G1 X416.503 Y409.845 E0.20217
G1 X415.727 Y410.67 E0.03955
G1 X411.653 Y414.77 E0.20185
G1 X410.745 Y415.655 E0.04428
G1 X406.537 Y419.536 E0.19992
G1 X405.754 Y420.238 E0.03673
G1 X401.238 Y424.055 E0.2065
G1 X400.274 Y424.845 E0.04353
G1 X395.75 Y428.341 E0.19967
G1 X394.801 Y429.049 E0.04135
G1 X390.025 Y432.418 E0.20411
G1 X389.006 Y433.112 E0.04306
G1 X384.178 Y436.212 E0.20037
G1 X383.19 Y436.824 E0.04059
G1 X378.254 Y439.697 E0.19945
G1 X377.122 Y440.332 E0.04533
G1 X372.019 Y443.013 E0.20131
G1 X370.933 Y443.561 E0.04248
G1 X365.744 Y446.003 E0.20028
G1 X364.604 Y446.517 E0.04367
G1 X359.296 Y448.74 E0.20097
G1 X358.307 Y449.137 E0.03722
G1 X352.723 Y451.195 E0.20783
G1 X351.644 Y451.573 E0.03993
G1 X346.149 Y453.329 E0.20146
G1 X345.101 Y453.647 E0.03825
G1 X339.49 Y455.177 E0.20311
G1 X338.209 Y455.504 E0.04617
G1 X332.581 Y456.774 E0.20149
G1 X331.42 Y457.016 E0.04142
G1 X325.744 Y458.04 E0.20142
G1 X324.564 Y458.235 E0.04177
G1 X318.943 Y458.999 E0.19811
G1 X317.632 Y459.155 E0.04611
G1 X311.933 Y459.677 E0.19986
G1 X310.658 Y459.774 E0.04466
G1 X304.883 Y460.048 E0.20191
G1 X303.959 Y460.078 E0.03229
G1 X301.419 Y460.012 E0.08873
G1 X298.748 Y460.012 E0.09328
G1 X296.325 Y460.078 E0.08465
G1 X295.615 Y460.073 E0.0248
G1 X289.577 Y459.784 E0.21111
G1 X288.535 Y459.719 E0.03646
G1 X282.698 Y459.186 E0.20469
G1 X281.411 Y459.047 E0.04521
G1 X275.811 Y458.286 E0.19737
G1 X274.577 Y458.098 E0.04359
G1 X268.882 Y457.07 E0.2021
G1 X267.824 Y456.864 E0.03764
G1 X262.053 Y455.562 E0.20661
G1 X260.881 Y455.277 E0.04212
G1 X255.329 Y453.767 E0.20094
G1 X254.296 Y453.469 E0.03755
G1 X248.639 Y451.663 E0.20738
G1 X247.696 Y451.347 E0.03473
G1 X242.078 Y449.281 E0.20904
G1 X240.923 Y448.833 E0.04326
G1 X235.601 Y446.604 E0.2015
G1 X234.599 Y446.165 E0.0382
G1 X229.356 Y443.697 E0.20237
G1 X228.372 Y443.217 E0.03823
G1 X223.155 Y440.478 E0.20578
G1 X222.209 Y439.963 E0.03762
G1 X217.138 Y437.015 E0.20485
G1 X216.038 Y436.35 E0.04489
G1 X211.216 Y433.252 E0.20016
G1 X210.219 Y432.589 E0.04181
G1 X205.476 Y429.245 E0.20267
G1 X204.487 Y428.524 E0.04274
G1 X199.96 Y425.025 E0.19982
G1 X199.129 Y424.364 E0.03708
G1 X194.596 Y420.537 E0.20718
G1 X193.706 Y419.762 E0.04121
G1 X189.462 Y415.846 E0.20167
G1 X188.684 Y415.109 E0.03743
G1 X184.503 Y410.903 E0.20711
G1 X183.672 Y410.039 E0.04186
G1 X179.831 Y405.822 E0.1992
G1 X178.959 Y404.831 E0.0461
G1 X175.272 Y400.409 E0.20107
G1 X174.563 Y399.53 E0.03944
G1 X171.059 Y394.935 E0.20181
G1 X170.391 Y394.034 E0.03917
G1 X167.005 Y389.168 E0.20703
G1 X166.37 Y388.221 E0.03982
G1 X163.256 Y383.303 E0.20329
G1 X162.653 Y382.316 E0.04039
G1 X159.752 Y377.259 E0.2036
G1 X159.288 Y376.424 E0.03336
G1 X156.539 Y371.114 E0.20882
