;FLAVOR:RepRap
;TIME:800
;Filament used: 2.45006m
;Layer height: 0.4
;MINX:224.95
;MINY:270.426
;MINZ:0.2
;MAXX:328.55
;MAXY:329.573
;MAXZ:5
;TARGET_MACHINE.NAME:Modix BIG-60 V4
;Generated with Cura_SteamEngine 5.10.0
T0
M104 S200
M109 S200
G28 ; home all axes
M82 ;absolute extrusion mode
M83 ;relative extrusion mode
G1 F2400 E-1
;LAYER_COUNT:13
;LAYER:0
M107
G0 F1200 X235.392 Y276.91 Z0.2
;TYPE:SKIRT
G1 F2400 E1
G1 F1200 X236.548 Y276.011 E0.05114
G1 X237.569 Y275.293 E0.04359
G1 X238.433 Y274.733 E0.03596
G1 X239.461 Y274.124 E0.04173
G1 X241.232 Y273.207 E0.06965
G1 X241.942 Y272.878 E0.02733
G1 X243.069 Y272.405 E0.04268
G1 X244.036 Y272.046 E0.03602
G1 X245.399 Y271.606 E0.05002
G1 X246.666 Y271.263 E0.04584
G1 X247.615 Y271.046 E0.034
G1 X249.079 Y270.777 E0.05198
G1 X250.061 Y270.641 E0.03462
G1 X251.54 Y270.5 E0.05189
G1 X252.803 Y270.442 E0.04415
G1 X254.05 Y270.437 E0.04355
G1 X255.261 Y270.485 E0.04233
G1 X259.21 Y270.828 E0.13843
G1 X261.901 Y270.988 E0.09414
G1 X264.538 Y271.07 E0.09214
G1 X267.202 Y271.078 E0.09304
G1 X269.875 Y271.01 E0.09338
G1 X272.499 Y270.868 E0.09177
G1 X275.159 Y270.649 E0.09321
G1 X276.911 Y270.465 E0.06152
G1 X277.822 Y270.427 E0.03184
G1 X321.805 Y270.426 E1.53602
G1 X322.632 Y270.439 E0.02889
G1 X323.375 Y270.502 E0.02604
G1 X324.007 Y270.63 E0.02252
G1 X324.817 Y270.902 E0.02984
G1 X325.399 Y271.181 E0.02254
G1 X326.03 Y271.581 E0.02609
G1 X326.686 Y272.128 E0.02983
G1 X327.127 Y272.6 E0.02256
G1 X327.627 Y273.291 E0.02979
G1 X327.938 Y273.856 E0.02252
G1 X328.238 Y274.6 E0.02802
G1 X328.439 Y275.394 E0.0286
G1 X328.548 Y276.393 E0.0351
G1 X328.55 Y300.542 E0.84336
G1 X328.538 Y301.621 E0.03768
G1 X328.494 Y302.656 E0.03618
G1 X328.331 Y304.473 E0.06371
G1 X328.237 Y305.168 E0.02449
G1 X327.923 Y306.932 E0.06257
G1 X327.775 Y307.591 E0.02359
G1 X327.307 Y309.324 E0.06269
G1 X327.068 Y310.089 E0.02799
G1 X326.721 Y311.059 E0.03598
G1 X326.149 Y312.469 E0.05314
G1 X325.628 Y313.591 E0.0432
G1 X325.051 Y314.707 E0.04388
G1 X324.547 Y315.59 E0.03551
G1 X323.772 Y316.826 E0.05095
G1 X323.074 Y317.827 E0.04262
G1 X322.462 Y318.638 E0.03548
G1 X321.661 Y319.613 E0.04407
G1 X320.7 Y320.678 E0.0501
G1 X319.999 Y321.39 E0.03489
G1 X319.057 Y322.275 E0.04514
G1 X318.108 Y323.089 E0.04366
G1 X316.952 Y323.988 E0.05114
G1 X315.931 Y324.706 E0.04359
G1 X315.067 Y325.266 E0.03596
G1 X314.039 Y325.875 E0.04173
G1 X312.268 Y326.792 E0.06965
G1 X311.561 Y327.121 E0.02723
G1 X310.646 Y327.508 E0.0347
G1 X309.25 Y328.026 E0.052
G1 X308.059 Y328.405 E0.04365
G1 X306.834 Y328.736 E0.04432
G1 X305.885 Y328.953 E0.034
G1 X304.421 Y329.222 E0.05198
G1 X303.439 Y329.358 E0.03462
G1 X301.96 Y329.499 E0.05189
G1 X300.697 Y329.557 E0.04415
G1 X299.45 Y329.562 E0.04355
G1 X298.239 Y329.514 E0.04233
G1 X294.29 Y329.171 E0.13843
G1 X291.599 Y329.011 E0.09414
G1 X288.962 Y328.929 E0.09214
G1 X286.299 Y328.921 E0.093
G1 X283.625 Y328.989 E0.09341
G1 X281.003 Y329.129 E0.0917
G1 X278.348 Y329.35 E0.09304
G1 X276.597 Y329.534 E0.06149
G1 X275.685 Y329.57 E0.03187
G1 X231.63 Y329.573 E1.53854
G1 X230.876 Y329.562 E0.02633
G1 X230.132 Y329.499 E0.02608
G1 X229.5 Y329.372 E0.02251
G1 X228.692 Y329.101 E0.02976
G1 X228.11 Y328.823 E0.02252
G1 X227.391 Y328.362 E0.02983
G1 X226.895 Y327.949 E0.02254
G1 X226.345 Y327.366 E0.02799
G1 X225.877 Y326.716 E0.02797
G1 X225.565 Y326.151 E0.02254
G1 X225.265 Y325.408 E0.02798
G1 X225.062 Y324.613 E0.02865
G1 X224.952 Y323.601 E0.03555
G1 X224.95 Y299.457 E0.84318
G1 X224.962 Y298.377 E0.03772
G1 X225.006 Y297.343 E0.03614
G1 X225.169 Y295.526 E0.06371
G1 X225.263 Y294.831 E0.02449
G1 X225.577 Y293.067 E0.06257
G1 X225.725 Y292.408 E0.02359
G1 X226.193 Y290.674 E0.06272
G1 X226.435 Y289.906 E0.02812
G1 X226.859 Y288.728 E0.04372
G1 X227.351 Y287.53 E0.04523
G1 X227.872 Y286.408 E0.0432
G1 X228.449 Y285.292 E0.04388
G1 X228.953 Y284.409 E0.03551
G1 X229.728 Y283.173 E0.05095
G1 X230.426 Y282.172 E0.04262
G1 X231.038 Y281.361 E0.03548
G1 X231.839 Y280.386 E0.04407
G1 X232.8 Y279.321 E0.0501
G1 X233.501 Y278.609 E0.03489
G1 X234.443 Y277.724 E0.04514
G1 X235.392 Y276.91 E0.04366
G0 X235.65 Y277.242
G1 X236.806 Y276.343 E0.05114
G1 X237.797 Y275.645 E0.04233
G1 X238.647 Y275.094 E0.03538
G1 X239.654 Y274.497 E0.04088
G1 X241.409 Y273.588 E0.06902
G1 X242.105 Y273.265 E0.0268
G1 X243.215 Y272.799 E0.04204
G1 X244.165 Y272.446 E0.03539
G1 X245.528 Y272.006 E0.05002
G1 X246.76 Y271.672 E0.04458
G1 X247.691 Y271.459 E0.03335
G1 X249.137 Y271.193 E0.05135
G1 X250.101 Y271.059 E0.03399
G1 X251.56 Y270.92 E0.05118
G1 X252.805 Y270.862 E0.04353
G1 X254.033 Y270.857 E0.04289
G1 X255.227 Y270.904 E0.04173
G1 X256.271 Y270.988 E0.03658
G1 X259.183 Y271.247 E0.1021
G1 X261.888 Y271.408 E0.09463
G1 X264.525 Y271.49 E0.09214
G1 X267.212 Y271.498 E0.09384
G1 X269.886 Y271.43 E0.09341
G1 X272.533 Y271.287 E0.09258
G1 X275.195 Y271.068 E0.09328
G1 X276.929 Y270.885 E0.06089
G1 X277.822 Y270.847 E0.03121
G1 X321.799 Y270.846 E1.53582
G1 X322.598 Y270.858 E0.02791
G1 X323.292 Y270.914 E0.02432
G1 X323.924 Y271.042 E0.02252
G1 X324.635 Y271.281 E0.0262
G1 X325.217 Y271.56 E0.02254
G1 X325.804 Y271.935 E0.02433
G1 X326.379 Y272.415 E0.02616
G1 X326.82 Y272.887 E0.02256
G1 X327.259 Y273.494 E0.02616
G1 X327.57 Y274.059 E0.02252
G1 X327.831 Y274.705 E0.02433
G1 X328.021 Y275.44 E0.02651
G1 X328.13 Y276.439 E0.0351
G1 X328.13 Y300.537 E0.84158
G1 X328.118 Y301.603 E0.03723
G1 X328.074 Y302.638 E0.03618
G1 X327.915 Y304.417 E0.06238
G1 X327.824 Y305.094 E0.02386
G1 X327.513 Y306.84 E0.06194
G1 X327.365 Y307.499 E0.02359
G1 X326.906 Y309.199 E0.0615
G1 X326.672 Y309.948 E0.0274
G1 X326.332 Y310.901 E0.03534
G1 X325.768 Y312.292 E0.05242
G1 X325.255 Y313.398 E0.04258
G1 X324.686 Y314.499 E0.04328
G1 X324.191 Y315.367 E0.0349
G1 X323.427 Y316.586 E0.05024
G1 X322.739 Y317.574 E0.04205
G1 X322.137 Y318.371 E0.03488
G1 X321.336 Y319.346 E0.04407
G1 X320.401 Y320.383 E0.04876
G1 X319.711 Y321.084 E0.03435
G1 X318.783 Y321.956 E0.04447
G1 X317.85 Y322.757 E0.04294
G1 X316.694 Y323.656 E0.05114
G1 X315.703 Y324.354 E0.04233
G1 X314.853 Y324.905 E0.03538
G1 X313.846 Y325.502 E0.04088
G1 X312.091 Y326.411 E0.06902
G1 X311.397 Y326.734 E0.02673
G1 X310.5 Y327.114 E0.03402
G1 X309.123 Y327.626 E0.05131
G1 X307.949 Y328 E0.04303
G1 X306.74 Y328.327 E0.04374
G1 X305.809 Y328.54 E0.03335
G1 X304.363 Y328.806 E0.05135
G1 X303.399 Y328.94 E0.03399
G1 X301.94 Y329.079 E0.05118
G1 X300.695 Y329.137 E0.04353
G1 X299.467 Y329.142 E0.04289
G1 X298.273 Y329.095 E0.04173
G1 X297.229 Y329.011 E0.03658
G1 X294.317 Y328.752 E0.1021
G1 X291.612 Y328.591 E0.09463
G1 X288.975 Y328.509 E0.09214
G1 X286.289 Y328.501 E0.0938
G1 X283.614 Y328.569 E0.09345
G1 X280.968 Y328.711 E0.09254
G1 X278.313 Y328.931 E0.09304
G1 X276.579 Y329.114 E0.06089
G1 X275.678 Y329.152 E0.03149
G1 X231.636 Y329.153 E1.53809
G1 X230.91 Y329.143 E0.02536
G1 X230.215 Y329.087 E0.02435
G1 X229.583 Y328.96 E0.02251
G1 X228.873 Y328.722 E0.02615
G1 X228.291 Y328.444 E0.02252
G1 X227.66 Y328.039 E0.02619
G1 X227.164 Y327.626 E0.02254
G1 X226.685 Y327.119 E0.02436
G1 X226.245 Y326.513 E0.02615
G1 X225.933 Y325.948 E0.02254
G1 X225.671 Y325.302 E0.02435
G1 X225.48 Y324.568 E0.02649
G1 X225.37 Y323.556 E0.03555
G1 X225.37 Y299.462 E0.84144
G1 X225.382 Y298.395 E0.03727
G1 X225.426 Y297.361 E0.03614
G1 X225.585 Y295.582 E0.06238
G1 X225.676 Y294.905 E0.02386
G1 X225.987 Y293.159 E0.06194
G1 X226.135 Y292.5 E0.02359
G1 X226.594 Y290.8 E0.0615
G1 X226.83 Y290.048 E0.02753
G1 X227.248 Y288.887 E0.04309
G1 X227.732 Y287.707 E0.04454
G1 X228.245 Y286.601 E0.04258
G1 X228.814 Y285.5 E0.04328
G1 X229.309 Y284.632 E0.0349
G1 X230.073 Y283.413 E0.05024
G1 X230.761 Y282.425 E0.04205
G1 X231.363 Y281.628 E0.03488
G1 X232.164 Y280.653 E0.04407
G1 X233.099 Y279.616 E0.04876
G1 X233.789 Y278.915 E0.03435
G1 X234.717 Y278.043 E0.04447
G1 X235.65 Y277.242 E0.04294
G0 X235.924 Y277.561
G1 X237.048 Y276.686 E0.04975
G1 X238.025 Y275.997 E0.04175
G1 X238.861 Y275.455 E0.03479
G1 X239.847 Y274.87 E0.04004
G1 X241.586 Y273.969 E0.0684
G1 X242.267 Y273.652 E0.02623
G1 X243.362 Y273.193 E0.04146
G1 X244.294 Y272.846 E0.03473
G1 X245.657 Y272.406 E0.05002
G1 X246.854 Y272.081 E0.04332
G1 X247.767 Y271.872 E0.03271
G1 X249.195 Y271.609 E0.05071
G1 X250.141 Y271.477 E0.03336
G1 X251.58 Y271.34 E0.05048
G1 X252.807 Y271.282 E0.0429
G1 X254.017 Y271.277 E0.04226
G1 X255.194 Y271.323 E0.04114
G1 X256.234 Y271.406 E0.03644
G1 X259.156 Y271.666 E0.10245
G1 X261.875 Y271.828 E0.09512
G1 X264.512 Y271.91 E0.09214
G1 X267.222 Y271.918 E0.09464
G1 X269.897 Y271.85 E0.09345
G1 X272.567 Y271.706 E0.09338
G1 X275.232 Y271.487 E0.09338
G1 X276.947 Y271.305 E0.06023
G1 X277.822 Y271.267 E0.03059
G1 X321.793 Y271.266 E1.53561
G1 X322.566 Y271.277 E0.027
G1 X323.209 Y271.326 E0.02252
G1 X323.841 Y271.454 E0.02252
G1 X324.453 Y271.66 E0.02255
G1 X325.035 Y271.939 E0.02254
G1 X325.577 Y272.288 E0.02251
G1 X326.072 Y272.702 E0.02254
G1 X326.513 Y273.174 E0.02256
G1 X326.891 Y273.697 E0.02254
G1 X327.202 Y274.262 E0.02252
G1 X327.441 Y274.861 E0.02252
G1 X327.604 Y275.486 E0.02256
G1 X327.71 Y276.439 E0.03349
G1 X327.71 Y300.532 E0.8414
G1 X327.698 Y301.585 E0.03678
G1 X327.654 Y302.62 E0.03618
G1 X327.499 Y304.361 E0.06104
G1 X327.411 Y305.02 E0.02322
G1 X327.103 Y306.748 E0.0613
G1 X326.955 Y307.407 E0.02359
G1 X326.505 Y309.074 E0.0603
G1 X326.276 Y309.807 E0.02682
G1 X325.943 Y310.743 E0.0347
G1 X325.387 Y312.115 E0.0517
G1 X324.882 Y313.205 E0.04195
G1 X324.321 Y314.291 E0.04269
G1 X323.835 Y315.144 E0.03429
G1 X323.082 Y316.346 E0.04953
G1 X322.404 Y317.321 E0.04147
G1 X321.812 Y318.105 E0.03431
G1 X321.024 Y319.065 E0.04337
G1 X320.101 Y320.089 E0.04814
G1 X319.424 Y320.778 E0.03373
G1 X318.509 Y321.637 E0.04383
G1 X317.576 Y322.438 E0.04294
G1 X316.452 Y323.313 E0.04975
G1 X315.475 Y324.002 E0.04175
G1 X314.639 Y324.544 E0.03479
G1 X313.653 Y325.129 E0.04004
G1 X311.914 Y326.03 E0.0684
G1 X311.233 Y326.347 E0.02623
G1 X310.353 Y326.72 E0.03338
G1 X308.995 Y327.226 E0.05061
G1 X307.839 Y327.595 E0.04238
G1 X306.646 Y327.918 E0.04316
G1 X305.733 Y328.127 E0.03271
G1 X304.305 Y328.39 E0.05071
G1 X303.359 Y328.522 E0.03336
G1 X301.92 Y328.659 E0.05048
G1 X300.693 Y328.717 E0.0429
G1 X299.483 Y328.722 E0.04226
G1 X298.306 Y328.676 E0.04114
G1 X297.266 Y328.593 E0.03644
G1 X294.344 Y328.333 E0.10245
G1 X291.625 Y328.171 E0.09512
G1 X288.988 Y328.089 E0.09214
G1 X286.279 Y328.081 E0.09461
G1 X283.603 Y328.149 E0.09348
G1 X280.933 Y328.293 E0.09338
G1 X278.278 Y328.512 E0.09304
G1 X276.561 Y328.694 E0.0603
G1 X275.678 Y328.732 E0.03087
G1 X231.641 Y328.733 E1.53791
G1 X230.942 Y328.724 E0.02441
G1 X230.298 Y328.675 E0.02256
G1 X229.666 Y328.548 E0.02251
G1 X229.054 Y328.343 E0.02254
G1 X228.472 Y328.065 E0.02252
G1 X227.929 Y327.716 E0.02254
G1 X227.433 Y327.303 E0.02254
G1 X226.992 Y326.832 E0.02253
G1 X226.613 Y326.31 E0.02253
G1 X226.301 Y325.745 E0.02254
G1 X226.061 Y325.146 E0.02254
G1 X225.897 Y324.522 E0.02253
G1 X225.79 Y323.556 E0.03394
G1 X225.79 Y299.467 E0.84126
G1 X225.802 Y298.413 E0.03681
G1 X225.846 Y297.379 E0.03614
G1 X226.001 Y295.638 E0.06104
G1 X226.089 Y294.979 E0.02322
G1 X226.397 Y293.251 E0.0613
G1 X226.545 Y292.592 E0.02359
G1 X226.995 Y290.925 E0.0603
G1 X227.225 Y290.19 E0.0269
G1 X227.637 Y289.046 E0.04246
G1 X228.113 Y287.884 E0.04385
G1 X228.618 Y286.794 E0.04195
G1 X229.179 Y285.708 E0.04269
G1 X229.665 Y284.855 E0.03429
G1 X230.418 Y283.653 E0.04953
G1 X231.096 Y282.678 E0.04147
G1 X231.688 Y281.894 E0.03431
G1 X232.476 Y280.934 E0.04337
G1 X233.399 Y279.91 E0.04814
G1 X234.076 Y279.221 E0.03373
G1 X234.991 Y278.362 E0.04383
G1 X235.924 Y277.561 E0.04294
G1 F2400 E-1
;MESH:Planter - cover.stl(3)
G0 F1200 X255.746 Y316.159
;TYPE:WALL-INNER
G1 F2400 E1
G1 F1200 X254.993 Y316.237 E0.02644
G1 X254.336 Y316.282 E0.023
G1 X253.482 Y316.302 E0.02983
G1 X252.721 Y316.285 E0.02658
G1 X251.982 Y316.235 E0.02587
G1 X251.217 Y316.155 E0.02686
G1 X250.484 Y316.038 E0.02592
G1 X249.737 Y315.888 E0.02661
G1 X248.996 Y315.706 E0.02665
G1 X248.267 Y315.494 E0.02651
G1 X247.557 Y315.255 E0.02616
G1 X246.876 Y314.987 E0.02556
G1 X246.196 Y314.69 E0.02591
G1 X245.488 Y314.341 E0.02757
G1 X244.816 Y313.971 E0.02679
G1 X244.169 Y313.576 E0.02647
G1 X243.629 Y313.214 E0.0227
G1 X242.957 Y312.726 E0.029
G1 X242.354 Y312.244 E0.02696
G1 X241.779 Y311.743 E0.02663
G1 X241.24 Y311.224 E0.02613
G1 X240.706 Y310.664 E0.02702
G1 X240.207 Y310.094 E0.02646
G1 X239.763 Y309.538 E0.02485
G1 X239.34 Y308.967 E0.02482
G1 X238.873 Y308.268 E0.02936
G1 X238.493 Y307.644 E0.02551
G1 X238.119 Y306.959 E0.02726
G1 X237.783 Y306.278 E0.02652
G1 X237.486 Y305.6 E0.02585
G1 X237.246 Y304.992 E0.02283
G1 X236.971 Y304.177 E0.03004
G1 X236.757 Y303.442 E0.02673
G1 X236.517 Y302.46 E0.0353
G1 X236.429 Y301.965 E0.01756
G1 X236.313 Y301.211 E0.02664
G1 X236.235 Y300.469 E0.02606
G1 X236.19 Y299.812 E0.023
G1 X236.17 Y298.966 E0.02955
G1 X236.187 Y298.197 E0.02686
G1 X236.237 Y297.458 E0.02587
G1 X236.312 Y296.754 E0.02473
G1 X236.433 Y295.963 E0.02795
G1 X236.58 Y295.215 E0.02662
G1 X236.767 Y294.467 E0.02693
G1 X236.975 Y293.757 E0.02584
G1 X237.336 Y292.696 E0.03914
G1 X237.795 Y291.644 E0.04008
G1 X238.132 Y290.964 E0.0265
G1 X238.451 Y290.383 E0.02315
G1 X238.895 Y289.647 E0.03002
G1 X239.317 Y289.012 E0.02663
G1 X239.753 Y288.425 E0.02554
G1 X240.228 Y287.826 E0.0267
G1 X240.734 Y287.254 E0.02667
G1 X241.25 Y286.71 E0.02619
G1 X241.807 Y286.183 E0.02678
G1 X242.365 Y285.692 E0.02596
G1 X242.954 Y285.22 E0.02636
G1 X243.491 Y284.825 E0.02328
G1 X244.189 Y284.354 E0.02941
G1 X244.852 Y283.955 E0.02702
G1 X245.888 Y283.39 E0.04121
G1 X246.874 Y282.961 E0.03755
G1 X247.504 Y282.715 E0.02362
G1 X248.292 Y282.446 E0.02908
G1 X249.021 Y282.236 E0.02649
G1 X249.764 Y282.054 E0.02672
G1 X250.509 Y281.905 E0.02653
G1 X251.247 Y281.789 E0.02609
G1 X252.007 Y281.707 E0.0267
G1 X252.66 Y281.666 E0.02285
G1 X253.5 Y281.645 E0.02934
G1 X254.271 Y281.662 E0.02693
G1 X255.022 Y281.709 E0.02628
G1 X255.666 Y281.781 E0.02263
G1 X256.509 Y281.909 E0.02978
G1 X257.256 Y282.056 E0.02659
G1 X258.005 Y282.243 E0.02696
G1 X258.702 Y282.446 E0.02535
G1 X259.923 Y282.871 E0.04515
G1 X260.827 Y283.27 E0.03451
G1 X261.513 Y283.61 E0.02674
G1 X262.083 Y283.919 E0.02264
G1 X262.825 Y284.371 E0.03034
G1 X263.372 Y284.735 E0.02295
G1 X264.06 Y285.238 E0.02976
G1 X264.644 Y285.701 E0.02603
G1 X265.212 Y286.2 E0.0264
G1 X265.758 Y286.723 E0.0264
G1 X266.263 Y287.247 E0.02541
G1 X266.777 Y287.835 E0.02727
G1 X267.252 Y288.43 E0.02659
G1 X267.655 Y288.979 E0.02378
G1 X268.128 Y289.681 E0.02956
G1 X268.508 Y290.312 E0.02572
G1 X268.861 Y290.952 E0.02553
G1 X269.213 Y291.67 E0.02793
G1 X269.511 Y292.348 E0.02586
G1 X269.761 Y292.985 E0.0239
G1 X270.025 Y293.764 E0.02872
G1 X270.241 Y294.495 E0.02662
G1 X270.418 Y295.226 E0.02627
G1 X270.571 Y295.985 E0.02704
G1 X270.683 Y296.72 E0.02596
G1 X270.765 Y297.489 E0.02701
G1 X270.81 Y298.226 E0.02579
G1 X270.826 Y298.982 E0.02641
G1 X270.81 Y299.747 E0.02672
G1 X270.766 Y300.463 E0.02505
G1 X270.692 Y301.153 E0.02424
G1 X270.566 Y301.989 E0.02953
G1 X270.413 Y302.745 E0.02694
G1 X270.245 Y303.437 E0.02487
G1 X270.022 Y304.189 E0.02739
G1 X269.653 Y305.278 E0.04016
G1 X269.201 Y306.303 E0.03912
G1 X268.878 Y306.96 E0.02557
G1 X268.547 Y307.567 E0.02415
G1 X268.11 Y308.288 E0.02944
G1 X267.734 Y308.855 E0.02376
G1 X267.244 Y309.527 E0.02904
G1 X266.77 Y310.116 E0.0264
G1 X266.272 Y310.684 E0.02638
G1 X265.737 Y311.243 E0.02702
G1 X265.195 Y311.763 E0.02623
G1 X264.631 Y312.256 E0.02616
G1 X264.042 Y312.728 E0.02636
G1 X263.492 Y313.131 E0.02381
G1 X262.796 Y313.599 E0.02929
G1 X262.184 Y313.971 E0.02501
G1 X261.483 Y314.353 E0.02788
G1 X260.802 Y314.689 E0.02652
G1 X260.122 Y314.987 E0.02593
G1 X259.492 Y315.233 E0.02362
G1 X258.732 Y315.493 E0.02805
G1 X257.979 Y315.712 E0.02739
G1 X257.236 Y315.894 E0.02672
G1 X256.49 Y316.043 E0.02657
G1 X255.746 Y316.159 E0.0263
G1 F2400 E-1
G0 F1200 X274.67 Y322.89
G1 F2400 E1
G1 F1200 X274.67 Y298.952 E0.83599
G1 X274.644 Y298.006 E0.03305
